;FLAVOR:Marlin
;TIME:20604
;Filament used: 73.5031m
;Layer height: 0.48
;MINX:37.418
;MINY:2.705
;MINZ:0.24
;MAXX:168.771
;MAXY:217.295
;MAXZ:18.96
;Generated with Cura_SteamEngine 4.13.0
M140 S75
M105
M190 S75
M104 S190
M105
M109 S190
M82 ;absolute extrusion mode
; Script based on an original created by tjjfvi (https://github.com/tjjfvi)
; An up-to-date version of the tjjfvi's original script can be found
; here:  https://csi.t6.fyi/
; Note - This script will only work in Cura V4.2 and above!
; --- Global Settings
; layer_height = 0.48
; smooth_spiralized_contours = True
; magic_mesh_surface_mode = normal
; machine_extruder_count = 1
; --- Single Extruder Settings
; speed_z_hop = 5
; retraction_amount = 10
; retraction_hop = 0.2
; retraction_hop_enabled = False
; retraction_enable = True
; retraction_speed = 30
; retraction_retract_speed = 30
; retraction_prime_speed = 30
; speed_travel = 150.0

; Ender 3 Custom Start G-code
G92 E0 ; Reset Extruder
G28 ; Home all axes
G1 Z2.0 F3000 ; Move Z Axis up little to prevent scratching of Heat Bed
G1 X0.1 Y20 Z0.3 F5000.0 ; Move to start position
G1 X0.1 Y200.0 Z0.3 F1500.0 E15 ; Draw the first line
G1 X0.4 Y200.0 Z0.3 F5000.0 ; Move to side a little
G1 X0.4 Y20 Z0.3 F1500.0 E30 ; Draw the second line
G92 E0 ; Reset Extruder
G1 Z2.0 F3000 ; Move Z Axis up little to prevent scratching of Heat Bed
G1 X5 Y20 Z0.3 F5000.0 ; Move over to prevent blob squish
G92 E0
G92 E0
G1 F1800 E-10
;LAYER_COUNT:40
;LAYER:0
M107
G0 F6000 X37.577 Y8.756 Z0.24
;TYPE:SKIRT
G1 F1800 E0
G1 F1200 X37.775 Y8.002 E0.06223
G1 X38.049 Y7.273 E0.12439
G1 X38.396 Y6.575 E0.18662
G1 X38.813 Y5.916 E0.24887
G1 X39.296 Y5.304 E0.3111
G1 X39.838 Y4.744 E0.37331
G1 X40.435 Y4.242 E0.43558
G1 X41.08 Y3.805 E0.49777
G1 X41.766 Y3.436 E0.55995
G1 X42.487 Y3.139 E0.62219
G1 X43.234 Y2.917 E0.6844
G1 X44.001 Y2.773 E0.74669
G1 X45.018 Y2.705 E0.82805
G1 X58.52 Y2.705 E1.90584
G1 X59.298 Y2.745 E1.96803
G1 X60.069 Y2.864 E2.0303
G1 X60.823 Y3.062 E2.09253
G1 X61.552 Y3.336 E2.1547
G1 X62.25 Y3.683 E2.21692
G1 X62.909 Y4.1 E2.27917
G1 X63.521 Y4.583 E2.3414
G1 X64.081 Y5.125 E2.40361
G1 X64.583 Y5.722 E2.46588
G1 X65.02 Y6.367 E2.52807
G1 X65.389 Y7.053 E2.59025
G1 X65.686 Y7.774 E2.65249
G1 X65.908 Y8.522 E2.71478
G1 X66.052 Y9.288 E2.77699
G1 X66.12 Y10.305 E2.85835
G1 X66.121 Y209.695 E18.77453
G1 X66.081 Y210.473 E18.83671
G1 X65.962 Y211.244 E18.89899
G1 X65.764 Y211.998 E18.96121
G1 X65.49 Y212.727 E19.02338
G1 X65.143 Y213.425 E19.0856
G1 X64.726 Y214.084 E19.14785
G1 X64.243 Y214.696 E19.21009
G1 X63.701 Y215.256 E19.2723
G1 X63.104 Y215.758 E19.33456
G1 X62.459 Y216.195 E19.39675
G1 X61.773 Y216.564 E19.45893
G1 X61.052 Y216.861 E19.52118
G1 X60.305 Y217.083 E19.58338
G1 X59.538 Y217.227 E19.64568
G1 X58.521 Y217.295 E19.72704
G1 X45.019 Y217.295 E20.80483
G1 X44.241 Y217.255 E20.86701
G1 X43.47 Y217.136 E20.92929
G1 X42.716 Y216.938 E20.99151
G1 X41.987 Y216.664 E21.05368
G1 X41.289 Y216.317 E21.1159
G1 X40.63 Y215.9 E21.17816
G1 X40.018 Y215.417 E21.24039
G1 X39.458 Y214.875 E21.3026
G1 X38.956 Y214.278 E21.36486
G1 X38.519 Y213.633 E21.42705
G1 X38.15 Y212.947 E21.48923
G1 X37.853 Y212.226 E21.55148
G1 X37.631 Y211.478 E21.61376
G1 X37.487 Y210.712 E21.67598
G1 X37.419 Y209.695 E21.75734
G1 X37.418 Y10.305 E37.67351
G1 X37.458 Y9.527 E37.7357
G1 X37.577 Y8.756 E37.79797
G0 F6000 X38.377 Y8.841
G1 F1200 X38.575 Y8.131 E37.85681
G1 X38.848 Y7.446 E37.91567
G1 X39.194 Y6.795 E37.97452
G1 X39.608 Y6.185 E38.03337
G1 X40.086 Y5.624 E38.0922
G1 X40.622 Y5.117 E38.15109
G1 X41.209 Y4.672 E38.20989
G1 X41.842 Y4.292 E38.26883
G1 X42.511 Y3.984 E38.32762
G1 X43.21 Y3.75 E38.38646
G1 X43.931 Y3.592 E38.44538
G1 X45.018 Y3.505 E38.53242
G1 X58.52 Y3.505 E39.61021
G1 X59.256 Y3.545 E39.66905
G1 X59.984 Y3.664 E39.72793
G1 X60.694 Y3.862 E39.78677
G1 X61.379 Y4.135 E39.84563
G1 X62.03 Y4.481 E39.90448
G1 X62.64 Y4.895 E39.96333
G1 X63.201 Y5.373 E40.02216
G1 X63.708 Y5.909 E40.08106
G1 X64.153 Y6.496 E40.13986
G1 X64.533 Y7.129 E40.19879
G1 X64.841 Y7.798 E40.25758
G1 X65.075 Y8.497 E40.31642
G1 X65.233 Y9.218 E40.37534
G1 X65.32 Y10.305 E40.46239
G1 X65.321 Y209.695 E56.37856
G1 X65.281 Y210.431 E56.4374
G1 X65.162 Y211.159 E56.49628
G1 X64.964 Y211.869 E56.55512
G1 X64.691 Y212.554 E56.61398
G1 X64.345 Y213.205 E56.67283
G1 X63.931 Y213.815 E56.73168
G1 X63.453 Y214.376 E56.79051
G1 X62.917 Y214.883 E56.84941
G1 X62.33 Y215.328 E56.9082
G1 X61.697 Y215.708 E56.96714
G1 X61.028 Y216.016 E57.02593
G1 X60.329 Y216.25 E57.08477
G1 X59.608 Y216.408 E57.14369
G1 X58.521 Y216.495 E57.23074
G1 X45.019 Y216.495 E58.30852
G1 X44.283 Y216.455 E58.36736
G1 X43.555 Y216.336 E58.42624
G1 X42.845 Y216.138 E58.48508
G1 X42.16 Y215.865 E58.54394
G1 X41.509 Y215.519 E58.60279
G1 X40.899 Y215.105 E58.66164
G1 X40.338 Y214.627 E58.72047
G1 X39.831 Y214.091 E58.77937
G1 X39.386 Y213.504 E58.83817
G1 X39.006 Y212.871 E58.8971
G1 X38.698 Y212.202 E58.95589
G1 X38.464 Y211.503 E59.01473
G1 X38.306 Y210.782 E59.07365
G1 X38.219 Y209.695 E59.1607
G1 X38.218 Y10.305 E75.07687
G1 X38.258 Y9.569 E75.13571
G1 X38.377 Y8.841 E75.19459
G0 F6000 X39.177 Y8.931
G1 F1200 X39.375 Y8.268 E75.24982
G1 X39.647 Y7.631 E75.30511
G1 X39.991 Y7.03 E75.36039
G1 X40.402 Y6.472 E75.41571
G1 X40.874 Y5.966 E75.47095
G1 X41.402 Y5.517 E75.52627
G1 X41.977 Y5.132 E75.58151
G1 X42.594 Y4.817 E75.63681
G1 X43.242 Y4.574 E75.69205
G1 X43.915 Y4.407 E75.74741
G1 X44.601 Y4.319 E75.80261
G1 X45.018 Y4.305 E75.83592
G1 X58.52 Y4.305 E76.91371
G1 X59.211 Y4.345 E76.96896
G1 X59.894 Y4.464 E77.0243
G1 X60.557 Y4.662 E77.07953
G1 X61.194 Y4.934 E77.13482
G1 X61.795 Y5.278 E77.1901
G1 X62.353 Y5.689 E77.24542
G1 X62.859 Y6.161 E77.30066
G1 X63.308 Y6.689 E77.35598
G1 X63.693 Y7.264 E77.41122
G1 X64.008 Y7.881 E77.46652
G1 X64.251 Y8.529 E77.52176
G1 X64.418 Y9.202 E77.57711
G1 X64.506 Y9.888 E77.63232
G1 X64.52 Y10.305 E77.66563
G1 X64.521 Y209.695 E93.5818
G1 X64.481 Y210.386 E93.63705
G1 X64.362 Y211.069 E93.69239
G1 X64.164 Y211.732 E93.74762
G1 X63.892 Y212.369 E93.80291
G1 X63.548 Y212.97 E93.85819
G1 X63.137 Y213.528 E93.91351
G1 X62.665 Y214.034 E93.96875
G1 X62.137 Y214.483 E94.02407
G1 X61.562 Y214.868 E94.07931
G1 X60.945 Y215.183 E94.13461
G1 X60.297 Y215.426 E94.18985
G1 X59.624 Y215.593 E94.2452
G1 X58.938 Y215.681 E94.30041
G1 X58.521 Y215.695 E94.33372
G1 X45.019 Y215.695 E95.41151
G1 X44.328 Y215.655 E95.46676
G1 X43.645 Y215.536 E95.5221
G1 X42.982 Y215.338 E95.57733
G1 X42.345 Y215.066 E95.63262
G1 X41.744 Y214.722 E95.6879
G1 X41.186 Y214.311 E95.74322
G1 X40.68 Y213.839 E95.79845
G1 X40.231 Y213.311 E95.85378
G1 X39.846 Y212.736 E95.90902
G1 X39.531 Y212.119 E95.96432
G1 X39.288 Y211.471 E96.01956
G1 X39.121 Y210.798 E96.07491
G1 X39.033 Y210.112 E96.13012
G1 X39.019 Y209.695 E96.16343
G1 X39.018 Y10.305 E112.0796
G1 X39.058 Y9.614 E112.13485
G1 X39.177 Y8.931 E112.19019
G0 F6000 X39.977 Y9.028
G1 F1200 X40.174 Y8.414 E112.24166
G1 X40.445 Y7.829 E112.29313
G1 X40.787 Y7.282 E112.34462
G1 X41.193 Y6.782 E112.39604
G1 X41.658 Y6.336 E112.44747
G1 X42.175 Y5.951 E112.49892
G1 X42.736 Y5.632 E112.55044
G1 X43.332 Y5.386 E112.60191
G1 X43.953 Y5.215 E112.65332
G1 X44.591 Y5.123 E112.70478
G1 X45.018 Y5.105 E112.73889
G1 X58.52 Y5.105 E113.81668
G1 X59.163 Y5.145 E113.86811
G1 X59.797 Y5.264 E113.9196
G1 X60.411 Y5.461 E113.97107
G1 X60.996 Y5.732 E114.02254
G1 X61.543 Y6.074 E114.07403
G1 X62.043 Y6.48 E114.12545
G1 X62.489 Y6.945 E114.17688
G1 X62.874 Y7.462 E114.22833
G1 X63.193 Y8.023 E114.27985
G1 X63.439 Y8.619 E114.33132
G1 X63.61 Y9.24 E114.38273
G1 X63.702 Y9.878 E114.43419
G1 X63.72 Y10.305 E114.4683
G1 X63.721 Y209.695 E130.38447
G1 X63.681 Y210.338 E130.4359
G1 X63.562 Y210.972 E130.48739
G1 X63.365 Y211.586 E130.53887
G1 X63.094 Y212.171 E130.59033
G1 X62.752 Y212.718 E130.64183
G1 X62.346 Y213.218 E130.69324
G1 X61.881 Y213.664 E130.74467
G1 X61.364 Y214.049 E130.79613
G1 X60.803 Y214.368 E130.84764
G1 X60.207 Y214.614 E130.89911
G1 X59.586 Y214.785 E130.95053
G1 X58.948 Y214.877 E131.00198
G1 X58.521 Y214.895 E131.0361
G1 X45.019 Y214.895 E132.11388
G1 X44.376 Y214.855 E132.16531
G1 X43.742 Y214.736 E132.2168
G1 X43.128 Y214.539 E132.26828
G1 X42.543 Y214.268 E132.31974
G1 X41.996 Y213.926 E132.37124
G1 X41.496 Y213.52 E132.42265
G1 X41.05 Y213.055 E132.47408
G1 X40.665 Y212.538 E132.52554
G1 X40.346 Y211.977 E132.57705
G1 X40.1 Y211.381 E132.62852
G1 X39.929 Y210.76 E132.67994
G1 X39.837 Y210.122 E132.73139
G1 X39.819 Y209.695 E132.76551
G1 X39.818 Y10.305 E148.68168
G1 X39.858 Y9.662 E148.7331
G1 X39.977 Y9.028 E148.7846
G0 F6000 X40.777 Y9.133
G1 F1200 X40.973 Y8.573 E148.83196
G1 X41.243 Y8.045 E148.87929
G1 X41.581 Y7.558 E148.92661
G1 X41.982 Y7.121 E148.97396
G1 X42.437 Y6.741 E149.02128
G1 X42.94 Y6.427 E149.06861
G1 X43.48 Y6.182 E149.11595
G1 X44.049 Y6.013 E149.16333
G1 X44.634 Y5.922 E149.21059
G1 X45.018 Y5.905 E149.24127
G1 X58.52 Y5.905 E150.31906
G1 X59.112 Y5.945 E150.36642
G1 X59.692 Y6.064 E150.41368
G1 X60.252 Y6.26 E150.46104
G1 X60.78 Y6.53 E150.50838
G1 X61.267 Y6.868 E150.5557
G1 X61.704 Y7.269 E150.60305
G1 X62.084 Y7.724 E150.65037
G1 X62.398 Y8.227 E150.6977
G1 X62.643 Y8.767 E150.74503
G1 X62.812 Y9.336 E150.79241
G1 X62.903 Y9.921 E150.83967
G1 X62.92 Y10.305 E150.87036
G1 X62.921 Y209.695 E166.78653
G1 X62.881 Y210.287 E166.83389
G1 X62.762 Y210.867 E166.88115
G1 X62.566 Y211.427 E166.92851
G1 X62.296 Y211.955 E166.97585
G1 X61.958 Y212.442 E167.02317
G1 X61.557 Y212.879 E167.07052
G1 X61.102 Y213.259 E167.11784
G1 X60.599 Y213.573 E167.16517
G1 X60.059 Y213.818 E167.2125
G1 X59.49 Y213.987 E167.25989
G1 X58.905 Y214.078 E167.30714
G1 X58.521 Y214.095 E167.33783
G1 X45.019 Y214.095 E168.41562
G1 X44.427 Y214.055 E168.46298
G1 X43.847 Y213.936 E168.51024
G1 X43.287 Y213.74 E168.5576
G1 X42.759 Y213.47 E168.60494
G1 X42.272 Y213.132 E168.65226
G1 X41.835 Y212.731 E168.6996
G1 X41.455 Y212.276 E168.74692
G1 X41.141 Y211.773 E168.79426
G1 X40.896 Y211.233 E168.84159
G1 X40.727 Y210.664 E168.88897
G1 X40.636 Y210.079 E168.93623
G1 X40.619 Y209.695 E168.96691
G1 X40.618 Y10.305 E184.88309
G1 X40.658 Y9.713 E184.93045
G1 X40.777 Y9.133 E184.97771
G0 F6000 X41.458 Y9.77
G1 F1200 X41.577 Y9.247 E185.02053
G1 X41.772 Y8.748 E185.06329
G1 X42.04 Y8.283 E185.10614
G1 X42.373 Y7.863 E185.14892
G1 X42.765 Y7.497 E185.19173
G1 X43.207 Y7.194 E185.23451
G1 X43.69 Y6.959 E185.27738
G1 X44.201 Y6.799 E185.32013
G1 X44.731 Y6.716 E185.36295
G1 X45.018 Y6.705 E185.38588
G1 X58.52 Y6.705 E186.46366
G1 X59.055 Y6.745 E186.50649
G1 X59.578 Y6.864 E186.5493
G1 X60.077 Y7.059 E186.59207
G1 X60.542 Y7.327 E186.63491
G1 X60.962 Y7.66 E186.6777
G1 X61.328 Y8.052 E186.72051
G1 X61.631 Y8.494 E186.76328
G1 X61.866 Y8.977 E186.80616
G1 X62.026 Y9.488 E186.8489
G1 X62.109 Y10.018 E186.89173
G1 X62.12 Y10.305 E186.91465
G1 X62.121 Y209.695 E202.83082
G1 X62.081 Y210.23 E202.87365
G1 X61.962 Y210.753 E202.91646
G1 X61.767 Y211.252 E202.95923
G1 X61.499 Y211.717 E203.00207
G1 X61.166 Y212.137 E203.04486
G1 X60.774 Y212.503 E203.08767
G1 X60.332 Y212.806 E203.13044
G1 X59.849 Y213.041 E203.17332
G1 X59.338 Y213.201 E203.21606
G1 X58.808 Y213.284 E203.25889
G1 X58.521 Y213.295 E203.28181
G1 X45.019 Y213.295 E204.3596
G1 X44.484 Y213.255 E204.40243
G1 X43.961 Y213.136 E204.44524
G1 X43.462 Y212.941 E204.48801
G1 X42.997 Y212.673 E204.53085
G1 X42.577 Y212.34 E204.57363
G1 X42.211 Y211.948 E204.61644
G1 X41.908 Y211.506 E204.65922
G1 X41.673 Y211.023 E204.7021
G1 X41.513 Y210.512 E204.74484
G1 X41.43 Y209.982 E204.78766
G1 X41.419 Y209.695 E204.81059
G1 X41.418 Y10.305 E220.72676
G1 X41.458 Y9.77 E220.76959
G0 F6000 X42.258 Y9.834
G1 F1200 X42.377 Y9.376 E220.80736
G1 X42.571 Y8.945 E220.84509
G1 X42.834 Y8.552 E220.88284
G1 X43.16 Y8.21 E220.92055
G1 X43.539 Y7.927 E220.95831
G1 X43.961 Y7.712 E220.99611
G1 X44.412 Y7.571 E221.03383
G1 X45.018 Y7.505 E221.08249
G1 X58.52 Y7.505 E222.16028
G1 X58.991 Y7.545 E222.19801
G1 X59.449 Y7.664 E222.23579
G1 X59.88 Y7.858 E222.27352
G1 X60.273 Y8.121 E222.31126
G1 X60.615 Y8.447 E222.34898
G1 X60.898 Y8.826 E222.38674
G1 X61.113 Y9.248 E222.42454
G1 X61.254 Y9.699 E222.46226
G1 X61.32 Y10.305 E222.51092
G1 X61.321 Y209.695 E238.42709
G1 X61.281 Y210.166 E238.46483
G1 X61.162 Y210.624 E238.5026
G1 X60.968 Y211.055 E238.54033
G1 X60.705 Y211.448 E238.57808
G1 X60.379 Y211.79 E238.61579
G1 X60 Y212.073 E238.65355
G1 X59.578 Y212.288 E238.69135
G1 X59.127 Y212.429 E238.72907
G1 X58.521 Y212.495 E238.77773
G1 X45.019 Y212.495 E239.85552
G1 X44.548 Y212.455 E239.89325
G1 X44.09 Y212.336 E239.93103
G1 X43.659 Y212.142 E239.96876
G1 X43.266 Y211.879 E240.0065
G1 X42.924 Y211.553 E240.04422
G1 X42.641 Y211.174 E240.08198
G1 X42.426 Y210.752 E240.11978
G1 X42.285 Y210.301 E240.1575
G1 X42.219 Y209.695 E240.20616
G1 X42.218 Y10.305 E256.12233
G1 X42.258 Y9.834 E256.16006
G0 F6000 X43.058 Y9.908
G1 F1200 X43.176 Y9.526 E256.19198
G1 X43.368 Y9.175 E256.22392
G1 X43.625 Y8.87 E256.25575
G1 X43.938 Y8.622 E256.28763
G1 X44.294 Y8.441 E256.31951
G1 X44.679 Y8.334 E256.35141
G1 X45.018 Y8.305 E256.37857
G1 X58.52 Y8.305 E257.45635
G1 X58.918 Y8.345 E257.48828
G1 X59.299 Y8.463 E257.52012
G1 X59.65 Y8.655 E257.55206
G1 X59.955 Y8.912 E257.5839
G1 X60.203 Y9.225 E257.61577
G1 X60.384 Y9.581 E257.64765
G1 X60.491 Y9.966 E257.67955
G1 X60.52 Y10.305 E257.70671
G1 X60.521 Y209.695 E273.62288
G1 X60.481 Y210.092 E273.65473
G1 X60.363 Y210.474 E273.68665
G1 X60.171 Y210.825 E273.71858
G1 X59.914 Y211.13 E273.75042
G1 X59.601 Y211.378 E273.7823
G1 X59.245 Y211.559 E273.81418
G1 X58.86 Y211.666 E273.84607
G1 X58.521 Y211.695 E273.87323
G1 X45.019 Y211.695 E274.95102
G1 X44.621 Y211.655 E274.98295
G1 X44.24 Y211.537 E275.01479
G1 X43.889 Y211.345 E275.04672
G1 X43.584 Y211.088 E275.07856
G1 X43.336 Y210.775 E275.11044
G1 X43.155 Y210.419 E275.14232
G1 X43.048 Y210.034 E275.17422
G1 X43.019 Y209.695 E275.20138
G1 X43.018 Y10.305 E291.11755
G1 X43.058 Y9.908 E291.1494
G0 F6000 X43.858 Y9.998
G1 F1200 X43.975 Y9.712 E291.17406
G1 X44.161 Y9.465 E291.19875
G1 X44.404 Y9.274 E291.22342
G1 X44.688 Y9.151 E291.24812
G1 X45.018 Y9.105 E291.27472
G1 X58.52 Y9.105 E292.35251
G1 X58.827 Y9.145 E292.37722
G1 X59.113 Y9.262 E292.40189
G1 X59.36 Y9.448 E292.42657
G1 X59.551 Y9.691 E292.45124
G1 X59.674 Y9.975 E292.47595
G1 X59.72 Y10.305 E292.50254
G1 X59.721 Y209.695 E308.41871
G1 X59.681 Y210.002 E308.44343
G1 X59.564 Y210.288 E308.46809
G1 X59.378 Y210.535 E308.49278
G1 X59.135 Y210.726 E308.51745
G1 X58.851 Y210.849 E308.54215
G1 X58.521 Y210.895 E308.56875
G1 X45.019 Y210.895 E309.64654
G1 X44.712 Y210.855 E309.67125
G1 X44.426 Y210.738 E309.69592
G1 X44.179 Y210.552 E309.7206
G1 X43.988 Y210.309 E309.74527
G1 X43.865 Y210.025 E309.76998
G1 X43.819 Y209.695 E309.79657
G1 X43.818 Y10.305 E325.71274
G1 X43.858 Y9.998 E325.73746
G0 F6000 X44.618 Y10.305
G1 F1200 X44.657 Y10.132 E325.75161
G1 X44.768 Y9.993 E325.76581
G1 X45.018 Y9.905 E325.78697
G1 X58.52 Y9.905 E326.86476
G1 X58.693 Y9.945 E326.87893
G1 X58.832 Y10.055 E326.89308
G1 X58.92 Y10.305 E326.91424
G1 X58.921 Y209.695 E342.83041
G1 X58.882 Y209.868 E342.84457
G1 X58.771 Y210.007 E342.85876
G1 X58.521 Y210.095 E342.87992
G1 X45.019 Y210.095 E343.95771
G1 X44.846 Y210.056 E343.97187
G1 X44.707 Y209.945 E343.98606
G1 X44.619 Y209.695 E344.00722
G1 X44.618 Y10.305 E359.92339
G1 F1800 E349.92339
G0 F6000 X44.354 Y10.306
G0 X44.365 Y9.652
G0 X59.173 Y9.652
G0 X68.748 Y10.305
G1 F1800 E359.92339
G1 F1200 X68.788 Y9.527 E359.98558
G1 X68.907 Y8.756 E360.04785
G1 X69.105 Y8.002 E360.11008
G1 X69.379 Y7.273 E360.17225
G1 X69.726 Y6.575 E360.23447
G1 X70.143 Y5.916 E360.29672
G1 X70.626 Y5.304 E360.35895
G1 X71.168 Y4.744 E360.42116
G1 X71.765 Y4.242 E360.48343
G1 X72.41 Y3.805 E360.54562
G1 X73.096 Y3.436 E360.6078
G1 X73.817 Y3.139 E360.67004
G1 X74.564 Y2.917 E360.73225
G1 X75.331 Y2.773 E360.79454
G1 X76.348 Y2.705 E360.87591
G1 X89.851 Y2.705 E361.95377
G1 X90.629 Y2.745 E362.01596
G1 X91.4 Y2.864 E362.07823
G1 X92.154 Y3.062 E362.14046
G1 X92.883 Y3.336 E362.20263
