;FLAVOR:Marlin
;TIME:921
;Filament used: 1.97258m
;Layer height: 0.48
;MINX:88.334
;MINY:88.325
;MINZ:0.24
;MAXX:131.666
;MAXY:131.675
;MAXZ:5.04
;Generated with Cura_SteamEngine 4.13.0
M140 S75
M105
M190 S75
M104 S190
M105
M109 S190
M82 ;absolute extrusion mode
; Script based on an original created by tjjfvi (https://github.com/tjjfvi)
; An up-to-date version of the tjjfvi's original script can be found
; here:  https://csi.t6.fyi/
; Note - This script will only work in Cura V4.2 and above!
; --- Global Settings
; layer_height = 0.48
; smooth_spiralized_contours = True
; magic_mesh_surface_mode = normal
; machine_extruder_count = 1
; --- Single Extruder Settings
; speed_z_hop = 5
; retraction_amount = 10
; retraction_hop = 0.2
; retraction_hop_enabled = False
; retraction_enable = True
; retraction_speed = 30
; retraction_retract_speed = 30
; retraction_prime_speed = 30
; speed_travel = 150.0

; Ender 3 Custom Start G-code
G92 E0 ; Reset Extruder
G28 ; Home all axes
G1 Z2.0 F3000 ; Move Z Axis up little to prevent scratching of Heat Bed
G1 X0.1 Y20 Z0.3 F5000.0 ; Move to start position
G1 X0.1 Y200.0 Z0.3 F1500.0 E15 ; Draw the first line
G1 X0.4 Y200.0 Z0.3 F5000.0 ; Move to side a little
G1 X0.4 Y20 Z0.3 F1500.0 E30 ; Draw the second line
G92 E0 ; Reset Extruder
G1 Z2.0 F3000 ; Move Z Axis up little to prevent scratching of Heat Bed
G1 X5 Y20 Z0.3 F5000.0 ; Move over to prevent blob squish
G92 E0
G92 E0
G1 F1800 E-10
;LAYER_COUNT:11
;LAYER:0
M107
G0 F6000 X94.508 Y94.84 Z0.24
;TYPE:SKIRT
G1 F1800 E0
G1 F1200 X95.417 Y93.964 E0.10077
G1 X95.654 Y93.751 E0.12621
G1 X96.624 Y92.943 E0.22698
G1 X96.879 Y92.746 E0.2527
G1 X97.906 Y92.011 E0.35351
G1 X98.179 Y91.831 E0.37962
G1 X99.255 Y91.176 E0.48017
G1 X99.528 Y91.022 E0.50519
G1 X100.652 Y90.443 E0.60612
G1 X100.946 Y90.306 E0.63201
G1 X102.106 Y89.813 E0.73262
G1 X102.405 Y89.698 E0.75819
G1 X103.6 Y89.29 E0.85899
G1 X103.918 Y89.195 E0.88548
G1 X105.191 Y88.865 E0.99046
G1 X105.503 Y88.796 E1.01596
G1 X106.694 Y88.578 E1.11261
G1 X107.005 Y88.532 E1.13771
G1 X108.259 Y88.394 E1.23841
G1 X108.579 Y88.371 E1.26402
G1 X109.839 Y88.325 E1.36467
G1 X110.161 Y88.325 E1.39037
G1 X111.421 Y88.371 E1.49102
G1 X111.741 Y88.394 E1.51663
G1 X112.996 Y88.532 E1.61741
G1 X113.248 Y88.567 E1.63772
G1 X114.559 Y88.809 E1.74414
G1 X114.867 Y88.878 E1.76933
G1 X116.089 Y89.197 E1.87015
G1 X116.4 Y89.29 E1.89606
G1 X117.595 Y89.698 E1.99685
G1 X117.894 Y89.813 E2.02243
G1 X119.054 Y90.306 E2.12304
G1 X119.348 Y90.443 E2.14893
G1 X120.472 Y91.022 E2.24986
G1 X120.745 Y91.176 E2.27488
G1 X121.821 Y91.831 E2.37543
G1 X122.093 Y92.01 E2.40142
G1 X123.119 Y92.744 E2.50212
G1 X123.375 Y92.942 E2.52796
G1 X124.345 Y93.75 E2.62873
G1 X124.582 Y93.963 E2.65417
G1 X125.491 Y94.839 E2.75494
G1 X125.715 Y95.071 E2.78068
G1 X126.557 Y96.011 E2.88141
G1 X126.763 Y96.259 E2.90715
G1 X127.534 Y97.258 E3.00788
G1 X127.72 Y97.517 E3.03333
G1 X128.418 Y98.571 E3.13425
G1 X128.586 Y98.846 E3.15997
G1 X129.203 Y99.945 E3.26058
G1 X129.352 Y100.237 E3.28674
G1 X129.886 Y101.38 E3.38745
G1 X130.008 Y101.665 E3.4122
G1 X130.461 Y102.845 E3.51309
G1 X130.567 Y103.155 E3.53924
G1 X130.93 Y104.362 E3.63986
G1 X131.011 Y104.674 E3.66559
G1 X131.285 Y105.906 E3.76633
G1 X131.343 Y106.219 E3.79174
G1 X131.527 Y107.467 E3.89244
G1 X131.562 Y107.788 E3.91822
G1 X131.654 Y109.047 E4.01898
G1 X131.666 Y109.368 E4.04462
G1 X131.666 Y110.631 E4.14544
G1 X131.654 Y110.952 E4.17108
G1 X131.562 Y112.21 E4.27177
G1 X131.527 Y112.53 E4.29747
G1 X131.343 Y113.779 E4.39824
G1 X131.285 Y114.092 E4.42365
G1 X131.011 Y115.325 E4.52448
G1 X130.929 Y115.639 E4.55038
G1 X130.566 Y116.845 E4.65092
G1 X130.461 Y117.153 E4.67689
G1 X130.008 Y118.334 E4.77786
G1 X129.886 Y118.62 E4.80268
G1 X129.353 Y119.761 E4.90321
G1 X129.204 Y120.053 E4.92938
G1 X128.586 Y121.154 E5.03016
G1 X128.418 Y121.429 E5.05589
G1 X127.721 Y122.482 E5.15669
G1 X127.535 Y122.741 E5.18214
G1 X126.764 Y123.74 E5.28287
G1 X126.558 Y123.988 E5.30861
G1 X125.716 Y124.928 E5.40934
G1 X125.492 Y125.16 E5.43509
G1 X124.583 Y126.036 E5.53586
G1 X124.346 Y126.249 E5.56129
G1 X123.376 Y127.057 E5.66207
G1 X123.121 Y127.254 E5.68779
G1 X122.094 Y127.989 E5.7886
G1 X121.821 Y128.169 E5.8147
G1 X120.745 Y128.824 E5.91526
G1 X120.472 Y128.978 E5.94028
G1 X119.348 Y129.557 E6.0412
G1 X119.054 Y129.694 E6.06709
G1 X117.894 Y130.187 E6.16771
G1 X117.595 Y130.302 E6.19328
G1 X116.4 Y130.71 E6.29408
G1 X116.082 Y130.805 E6.32057
G1 X114.809 Y131.135 E6.42554
G1 X114.497 Y131.204 E6.45105
G1 X113.306 Y131.422 E6.5477
G1 X112.995 Y131.468 E6.5728
G1 X111.741 Y131.606 E6.6735
G1 X111.421 Y131.629 E6.69911
G1 X110.161 Y131.675 E6.79976
G1 X109.839 Y131.675 E6.82546
G1 X108.579 Y131.629 E6.9261
G1 X108.259 Y131.606 E6.95171
G1 X107.004 Y131.468 E7.0525
G1 X106.752 Y131.433 E7.07281
G1 X105.441 Y131.191 E7.17922
G1 X105.133 Y131.122 E7.20442
G1 X103.911 Y130.803 E7.30523
G1 X103.6 Y130.71 E7.33114
G1 X102.405 Y130.302 E7.43194
G1 X102.106 Y130.187 E7.45751
G1 X100.946 Y129.694 E7.55813
G1 X100.652 Y129.557 E7.58402
G1 X99.528 Y128.978 E7.68494
G1 X99.255 Y128.824 E7.70996
G1 X98.179 Y128.169 E7.81052
G1 X97.906 Y127.989 E7.83662
G1 X96.879 Y127.254 E7.93743
G1 X96.624 Y127.057 E7.96315
G1 X95.654 Y126.249 E8.06393
G1 X95.417 Y126.036 E8.08936
G1 X94.508 Y125.16 E8.19013
G1 X94.284 Y124.928 E8.21588
G1 X93.442 Y123.988 E8.31661
G1 X93.236 Y123.74 E8.34235
G1 X92.465 Y122.741 E8.44308
G1 X92.279 Y122.482 E8.46853
G1 X91.582 Y121.429 E8.56933
G1 X91.414 Y121.154 E8.59506
G1 X90.796 Y120.053 E8.69584
G1 X90.647 Y119.761 E8.72201
G1 X90.114 Y118.62 E8.82254
G1 X89.992 Y118.334 E8.84736
G1 X89.539 Y117.153 E8.94833
G1 X89.434 Y116.845 E8.9743
G1 X89.071 Y115.639 E9.07484
G1 X88.989 Y115.325 E9.10074
G1 X88.715 Y114.092 E9.20157
G1 X88.657 Y113.779 E9.22698
G1 X88.473 Y112.53 E9.32775
G1 X88.438 Y112.21 E9.35345
G1 X88.346 Y110.953 E9.45406
G1 X88.334 Y110.632 E9.4797
G1 X88.334 Y109.369 E9.58052
G1 X88.346 Y109.048 E9.60616
G1 X88.438 Y107.79 E9.70684
G1 X88.473 Y107.47 E9.73254
G1 X88.657 Y106.221 E9.83332
G1 X88.715 Y105.908 E9.85873
G1 X88.989 Y104.675 E9.95955
G1 X89.071 Y104.361 E9.98546
G1 X89.434 Y103.155 E10.08599
G1 X89.539 Y102.847 E10.11197
G1 X89.992 Y101.666 E10.21294
G1 X90.114 Y101.38 E10.23776
G1 X90.647 Y100.239 E10.33828
G1 X90.796 Y99.947 E10.36445
G1 X91.414 Y98.846 E10.46524
G1 X91.582 Y98.571 E10.49096
G1 X92.279 Y97.518 E10.59176
G1 X92.465 Y97.259 E10.61722
G1 X93.236 Y96.26 E10.71795
G1 X93.442 Y96.012 E10.74368
G1 X94.284 Y95.072 E10.84442
G1 X94.508 Y94.84 E10.87016
G0 F6000 X95.063 Y95.416
G1 F1200 X95.972 Y94.54 E10.97093
G1 X96.166 Y94.366 E10.99173
G1 X97.136 Y93.558 E11.09251
G1 X97.345 Y93.396 E11.11362
G1 X98.372 Y92.661 E11.21443
G1 X98.595 Y92.514 E11.23575
G1 X99.671 Y91.859 E11.3363
G1 X99.894 Y91.734 E11.35671
G1 X101.018 Y91.155 E11.45763
G1 X101.259 Y91.042 E11.47888
G1 X102.419 Y90.549 E11.57949
G1 X102.664 Y90.455 E11.60044
G1 X103.859 Y90.047 E11.70124
G1 X104.119 Y89.969 E11.7229
G1 X105.392 Y89.639 E11.82788
G1 X105.647 Y89.583 E11.84872
G1 X106.838 Y89.365 E11.94537
G1 X107.092 Y89.328 E11.96586
G1 X108.346 Y89.19 E12.06656
G1 X108.609 Y89.17 E12.08762
G1 X109.869 Y89.124 E12.18826
G1 X110.131 Y89.124 E12.20918
G1 X111.391 Y89.17 E12.30982
G1 X111.653 Y89.19 E12.3308
G1 X112.908 Y89.328 E12.43158
G1 X113.223 Y89.375 E12.457
G1 X114.413 Y89.596 E12.55362
G1 X114.665 Y89.652 E12.57423
G1 X115.887 Y89.971 E12.67504
G1 X116.141 Y90.047 E12.6962
G1 X117.336 Y90.455 E12.797
G1 X117.581 Y90.549 E12.81795
G1 X118.741 Y91.042 E12.91856
G1 X118.982 Y91.155 E12.93981
G1 X120.106 Y91.734 E13.04073
G1 X120.329 Y91.859 E13.06114
G1 X121.405 Y92.514 E13.16169
G1 X121.628 Y92.661 E13.18301
G1 X122.654 Y93.395 E13.28371
G1 X122.863 Y93.557 E13.30482
G1 X123.833 Y94.365 E13.4056
G1 X124.027 Y94.539 E13.4264
G1 X124.936 Y95.415 E13.52717
G1 X125.12 Y95.605 E13.54828
G1 X125.962 Y96.545 E13.64902
G1 X126.13 Y96.747 E13.66999
G1 X126.901 Y97.746 E13.77072
G1 X127.053 Y97.958 E13.79154
G1 X127.751 Y99.012 E13.89246
G1 X127.888 Y99.238 E13.91355
G1 X128.505 Y100.337 E14.01416
G1 X128.628 Y100.575 E14.03554
G1 X129.162 Y101.718 E14.13625
G1 X129.261 Y101.952 E14.15653
G1 X129.714 Y103.132 E14.25743
G1 X129.8 Y103.385 E14.27876
G1 X130.163 Y104.592 E14.37937
G1 X130.23 Y104.847 E14.40041
G1 X130.504 Y106.079 E14.50116
G1 X130.551 Y106.336 E14.52202
G1 X130.735 Y107.584 E14.62271
G1 X130.764 Y107.847 E14.64383
G1 X130.856 Y109.106 E14.7446
G1 X130.866 Y109.368 E14.76553
G1 X130.866 Y110.631 E14.86635
G1 X130.856 Y110.894 E14.88736
G1 X130.764 Y112.152 E14.98804
G1 X130.736 Y112.414 E15.00908
G1 X130.552 Y113.663 E15.10985
G1 X130.504 Y113.919 E15.13065
G1 X130.23 Y115.152 E15.23147
G1 X130.163 Y115.409 E15.25267
G1 X129.8 Y116.615 E15.3532
G1 X129.714 Y116.866 E15.37438
G1 X129.261 Y118.047 E15.47535
G1 X129.162 Y118.282 E15.49571
G1 X128.629 Y119.423 E15.59624
G1 X128.506 Y119.661 E15.61762
G1 X127.888 Y120.762 E15.71841
G1 X127.751 Y120.987 E15.73943
G1 X127.054 Y122.04 E15.84024
G1 X126.902 Y122.253 E15.86112
G1 X126.131 Y123.252 E15.96186
G1 X125.963 Y123.454 E15.98283
G1 X125.121 Y124.394 E16.08356
G1 X124.937 Y124.584 E16.10468
G1 X124.028 Y125.46 E16.20545
G1 X123.834 Y125.634 E16.22625
G1 X122.864 Y126.442 E16.32702
G1 X122.655 Y126.604 E16.34813
G1 X121.628 Y127.339 E16.44894
G1 X121.405 Y127.486 E16.47026
G1 X120.329 Y128.141 E16.57082
G1 X120.106 Y128.266 E16.59122
G1 X118.982 Y128.845 E16.69215
G1 X118.741 Y128.958 E16.7134
G1 X117.581 Y129.451 E16.81401
G1 X117.336 Y129.545 E16.83496
G1 X116.141 Y129.953 E16.93575
G1 X115.881 Y130.031 E16.95742
G1 X114.608 Y130.361 E17.0624
G1 X114.353 Y130.417 E17.08324
G1 X113.162 Y130.635 E17.17989
G1 X112.908 Y130.672 E17.20038
G1 X111.654 Y130.81 E17.30108
G1 X111.391 Y130.83 E17.32213
G1 X110.131 Y130.876 E17.42278
G1 X109.869 Y130.876 E17.44369
G1 X108.609 Y130.83 E17.54434
G1 X108.347 Y130.81 E17.56531
G1 X107.092 Y130.672 E17.6661
G1 X106.777 Y130.625 E17.69152
G1 X105.587 Y130.404 E17.78814
G1 X105.335 Y130.348 E17.80874
G1 X104.113 Y130.029 E17.90956
G1 X103.859 Y129.953 E17.93072
G1 X102.664 Y129.545 E18.03152
G1 X102.419 Y129.451 E18.05246
G1 X101.259 Y128.958 E18.15308
G1 X101.018 Y128.845 E18.17432
G1 X99.894 Y128.266 E18.27525
G1 X99.671 Y128.141 E18.29566
G1 X98.595 Y127.486 E18.39621
G1 X98.372 Y127.339 E18.41753
G1 X97.345 Y126.604 E18.51834
G1 X97.136 Y126.442 E18.53945
G1 X96.166 Y125.634 E18.64022
G1 X95.972 Y125.46 E18.66103
G1 X95.063 Y124.584 E18.7618
G1 X94.879 Y124.394 E18.78291
G1 X94.037 Y123.454 E18.88364
G1 X93.869 Y123.252 E18.90462
G1 X93.098 Y122.253 E19.00535
G1 X92.946 Y122.04 E19.02624
G1 X92.249 Y120.987 E19.12704
G1 X92.112 Y120.762 E19.14807
G1 X91.494 Y119.661 E19.24885
G1 X91.371 Y119.423 E19.27024
G1 X90.838 Y118.282 E19.37076
G1 X90.739 Y118.047 E19.39112
G1 X90.286 Y116.866 E19.49209
G1 X90.2 Y116.615 E19.51327
G1 X89.837 Y115.409 E19.6138
G1 X89.77 Y115.152 E19.635
G1 X89.496 Y113.919 E19.73583
G1 X89.448 Y113.663 E19.75662
G1 X89.264 Y112.414 E19.85739
G1 X89.236 Y112.152 E19.87843
G1 X89.144 Y110.895 E19.97903
G1 X89.134 Y110.632 E20.00004
G1 X89.134 Y109.369 E20.10086
G1 X89.144 Y109.106 E20.12187
G1 X89.236 Y107.848 E20.22256
G1 X89.264 Y107.586 E20.24359
G1 X89.448 Y106.337 E20.34437
G1 X89.496 Y106.081 E20.36516
G1 X89.77 Y104.848 E20.46598
G1 X89.837 Y104.591 E20.48718
G1 X90.2 Y103.385 E20.58772
G1 X90.286 Y103.134 E20.6089
G1 X90.739 Y101.953 E20.70987
G1 X90.838 Y101.718 E20.73022
G1 X91.371 Y100.577 E20.83075
G1 X91.494 Y100.339 E20.85213
G1 X92.112 Y99.238 E20.95292
G1 X92.249 Y99.013 E20.97395
G1 X92.946 Y97.96 E21.07475
G1 X93.098 Y97.747 E21.09564
G1 X93.869 Y96.748 E21.19637
G1 X94.037 Y96.546 E21.21734
G1 X94.879 Y95.606 E21.31808
G1 X95.063 Y95.416 E21.33919
G0 F6000 X95.618 Y95.992
G1 F1200 X96.527 Y95.116 E21.43996
G1 X96.678 Y94.981 E21.45613
G1 X97.648 Y94.173 E21.5569
G1 X97.81 Y94.047 E21.57328
G1 X98.837 Y93.312 E21.6741
G1 X99.011 Y93.197 E21.69074
G1 X100.087 Y92.542 E21.7913
G1 X100.261 Y92.445 E21.8072
G1 X101.385 Y91.866 E21.90813
G1 X101.572 Y91.778 E21.92462
G1 X102.732 Y91.285 E22.02524
G1 X102.922 Y91.212 E22.04148
G1 X104.117 Y90.804 E22.14228
G1 X104.319 Y90.744 E22.1591
G1 X105.592 Y90.414 E22.26408
G1 X105.791 Y90.37 E22.28034
G1 X106.982 Y90.152 E22.377
G1 X107.18 Y90.123 E22.39297
G1 X108.434 Y89.985 E22.49367
G1 X108.638 Y89.97 E22.51
G1 X109.898 Y89.924 E22.61065
G1 X110.102 Y89.924 E22.62693
G1 X111.362 Y89.97 E22.72758
G1 X111.566 Y89.985 E22.7439
G1 X112.821 Y90.123 E22.84469
G1 X113.077 Y90.161 E22.86535
G1 X114.267 Y90.382 E22.96196
G1 X114.463 Y90.426 E22.978
G1 X115.685 Y90.745 E23.07881
G1 X115.883 Y90.804 E23.0953
G1 X117.078 Y91.212 E23.1961
G1 X117.268 Y91.285 E23.21235
G1 X118.428 Y91.778 E23.31296
G1 X118.615 Y91.866 E23.32946
G1 X119.739 Y92.445 E23.43038
G1 X119.913 Y92.542 E23.44629
G1 X120.989 Y93.197 E23.54684
G1 X121.162 Y93.312 E23.56342
G1 X122.188 Y94.046 E23.66412
G1 X122.351 Y94.172 E23.68057
G1 X123.321 Y94.98 E23.78134
G1 X123.472 Y95.115 E23.79751
G1 X124.381 Y95.991 E23.89828
G1 X124.524 Y96.139 E23.91471
G1 X125.366 Y97.079 E24.01544
G1 X125.497 Y97.236 E24.03176
G1 X126.268 Y98.235 E24.1325
G1 X126.386 Y98.4 E24.14869
G1 X127.084 Y99.454 E24.2496
G1 X127.191 Y99.629 E24.26597
G1 X127.808 Y100.728 E24.36658
G1 X127.903 Y100.914 E24.38325
G1 X128.437 Y102.057 E24.48396
G1 X128.514 Y102.238 E24.49966
G1 X128.967 Y103.418 E24.60055
G1 X129.034 Y103.616 E24.61724
G1 X129.397 Y104.823 E24.71785
G1 X129.449 Y105.021 E24.73419
G1 X129.723 Y106.253 E24.83494
G1 X129.76 Y106.453 E24.85117
G1 X129.944 Y107.701 E24.95187
G1 X129.967 Y107.905 E24.96826
G1 X130.059 Y109.164 E25.06903
G1 X130.066 Y109.368 E25.08532
G1 X130.066 Y110.631 E25.18614
G1 X130.059 Y110.835 E25.20243
G1 X129.967 Y112.093 E25.30312
G1 X129.944 Y112.297 E25.31951
G1 X129.76 Y113.546 E25.42028
G1 X129.723 Y113.745 E25.43644
G1 X129.449 Y114.978 E25.53726
G1 X129.397 Y115.178 E25.55376
G1 X129.034 Y116.384 E25.65429
G1 X128.967 Y116.58 E25.67083
G1 X128.514 Y117.761 E25.7718
G1 X128.437 Y117.943 E25.78757
G1 X127.904 Y119.084 E25.8881
G1 X127.809 Y119.27 E25.90477
G1 X127.191 Y120.371 E26.00556
G1 X127.084 Y120.545 E26.02186
G1 X126.387 Y121.598 E26.12266
G1 X126.269 Y121.764 E26.13892
G1 X125.498 Y122.763 E26.23965
G1 X125.367 Y122.92 E26.25598
G1 X124.525 Y123.86 E26.35671
G1 X124.382 Y124.008 E26.37314
G1 X123.473 Y124.884 E26.47391
G1 X123.322 Y125.019 E26.49008
G1 X122.352 Y125.827 E26.59085
G1 X122.19 Y125.953 E26.60723
G1 X121.163 Y126.688 E26.70804
G1 X120.989 Y126.803 E26.72469
G1 X119.913 Y127.458 E26.82525
G1 X119.739 Y127.555 E26.84115
G1 X118.615 Y128.134 E26.94208
G1 X118.428 Y128.222 E26.95857
G1 X117.268 Y128.715 E27.05919
G1 X117.078 Y128.788 E27.07543
G1 X115.883 Y129.196 E27.17623
G1 X115.681 Y129.256 E27.19305
G1 X114.408 Y129.586 E27.29803
G1 X114.209 Y129.63 E27.31429
G1 X113.018 Y129.848 E27.41094
G1 X112.82 Y129.877 E27.42692
G1 X111.566 Y130.015 E27.52762
G1 X111.362 Y130.03 E27.54395
G1 X110.102 Y130.076 E27.6446
G1 X109.898 Y130.076 E27.66088
G1 X108.638 Y130.03 E27.76153
G1 X108.434 Y130.015 E27.77785
G1 X107.179 Y129.877 E27.87864
G1 X106.923 Y129.839 E27.8993
G1 X105.733 Y129.618 E27.99591
G1 X105.537 Y129.574 E28.01195
G1 X104.315 Y129.255 E28.11276
G1 X104.117 Y129.196 E28.12925
G1 X102.922 Y128.788 E28.23005
G1 X102.732 Y128.715 E28.2463
G1 X101.572 Y128.222 E28.34691
G1 X101.385 Y128.134 E28.36341
G1 X100.261 Y127.555 E28.46433
G1 X100.087 Y127.458 E28.48023
G1 X99.011 Y126.803 E28.58079
G1 X98.837 Y126.688 E28.59744
G1 X97.81 Y125.953 E28.69825
G1 X97.648 Y125.827 E28.71463
G1 X96.678 Y125.019 E28.8154
G1 X96.527 Y124.884 E28.83157
G1 X95.618 Y124.008 E28.93234
G1 X95.475 Y123.86 E28.94877
G1 X94.633 Y122.92 E29.04951
G1 X94.502 Y122.763 E29.06583
G1 X93.731 Y121.764 E29.16656
G1 X93.613 Y121.598 E29.18282
G1 X92.916 Y120.545 E29.28362
G1 X92.809 Y120.371 E29.29992
G1 X92.191 Y119.27 E29.40071
G1 X92.096 Y119.084 E29.41738
G1 X91.563 Y117.943 E29.51791
G1 X91.486 Y117.761 E29.53368
