;FLAVOR:Marlin
;TIME:8117
;Filament used: 26.0702m
;Layer height: 0.48
;MINX:48.424
;MINY:30.786
;MINZ:0.24
;MAXX:199.266
;MAXY:215.041
;MAXZ:25.2
;Generated with Cura_SteamEngine 4.13.0
M140 S75
M105
M190 S75
M104 S190
M105
M109 S190
M82 ;absolute extrusion mode
; Script based on an original created by tjjfvi (https://github.com/tjjfvi)
; An up-to-date version of the tjjfvi's original script can be found
; here:  https://csi.t6.fyi/
; Note - This script will only work in Cura V4.2 and above!
; --- Global Settings
; layer_height = 0.48
; smooth_spiralized_contours = True
; magic_mesh_surface_mode = normal
; machine_extruder_count = 1
; --- Single Extruder Settings
; speed_z_hop = 5
; retraction_amount = 10
; retraction_hop = 0.2
; retraction_hop_enabled = False
; retraction_enable = True
; retraction_speed = 30
; retraction_retract_speed = 30
; retraction_prime_speed = 30
; speed_travel = 150.0

; Ender 3 Custom Start G-code
G92 E0 ; Reset Extruder
G28 ; Home all axes
G1 Z2.0 F3000 ; Move Z Axis up little to prevent scratching of Heat Bed
G1 X0.1 Y20 Z0.3 F5000.0 ; Move to start position
G1 X0.1 Y200.0 Z0.3 F1500.0 E15 ; Draw the first line
G1 X0.4 Y200.0 Z0.3 F5000.0 ; Move to side a little
G1 X0.4 Y20 Z0.3 F1500.0 E30 ; Draw the second line
G92 E0 ; Reset Extruder
G1 Z2.0 F3000 ; Move Z Axis up little to prevent scratching of Heat Bed
G1 X5 Y20 Z0.3 F5000.0 ; Move over to prevent blob squish
G92 E0
G92 E0
G1 F1800 E-10
;LAYER_COUNT:53
;LAYER:0
M107
G0 F6000 X71.906 Y44.24 Z0.24
;TYPE:SKIRT
G1 F1800 E0
G1 F1200 X72.244 Y43.753 E0.04732
G1 X72.645 Y43.316 E0.09466
G1 X73.1 Y42.936 E0.14198
G1 X73.603 Y42.622 E0.18932
G1 X74.143 Y42.377 E0.23665
G1 X74.712 Y42.208 E0.28403
G1 X75.297 Y42.117 E0.33129
G1 X75.681 Y42.1 E0.36197
G1 X80.74 Y42.1 E0.76581
G1 X81.332 Y42.14 E0.81317
G1 X81.912 Y42.259 E0.86043
G1 X82.472 Y42.455 E0.90779
G1 X83 Y42.725 E0.95513
G1 X83.487 Y43.063 E1.00245
G1 X83.924 Y43.464 E1.04979
G1 X84.304 Y43.919 E1.09712
G1 X84.618 Y44.422 E1.14445
G1 X84.863 Y44.962 E1.19178
G1 X85.032 Y45.531 E1.23916
G1 X85.123 Y46.116 E1.28642
G1 X85.14 Y46.499 E1.31702
G1 X85.145 Y82.138 E4.16188
G1 X85.144 Y119.135 E7.11514
G1 X85.565 Y119.231 E7.14961
G1 X85.78 Y119.286 E7.16733
G1 X86.973 Y119.622 E7.26626
G1 X87.271 Y119.717 E7.29123
G1 X89.065 Y120.364 E7.44346
G1 X89.431 Y120.5 E7.47463
G1 X89.8 Y120.656 E7.50661
G1 X92.173 Y121.794 E7.71669
G1 X92.448 Y121.929 E7.74114
G1 X92.696 Y122.061 E7.76357
G1 X93.272 Y122.391 E7.81656
G1 X93.606 Y122.596 E7.84784
G1 X95.071 Y123.537 E7.98683
G1 X95.328 Y123.715 E8.01179
G1 X96.74 Y124.772 E8.15258
G1 X97.023 Y124.995 E8.18134
G1 X97.547 Y125.432 E8.23581
G1 X97.778 Y125.639 E8.26057
G1 X99.883 Y127.662 E8.49361
G1 X100.189 Y127.988 E8.5293
G1 X101.632 Y129.689 E8.70736
G1 X101.833 Y129.943 E8.73322
G1 X102.648 Y131.061 E8.84366
G1 X102.797 Y131.275 E8.86447
G1 X103.429 Y132.238 E8.95642
G1 X103.594 Y132.509 E8.98175
G1 X104.844 Y134.755 E9.18693
G1 X105.041 Y135.157 E9.22266
G1 X106.058 Y137.523 E9.42823
G1 X106.173 Y137.819 E9.45358
G1 X106.547 Y138.9 E9.54489
G1 X106.625 Y139.148 E9.56564
G1 X107.014 Y140.492 E9.67733
G1 X107.089 Y140.791 E9.70194
G1 X107.556 Y142.966 E9.87951
G1 X107.601 Y143.212 E9.89948
G1 X107.655 Y143.558 E9.92743
G1 X107.685 Y143.788 E9.94594
G1 X107.947 Y146.35 E10.15152
G1 X107.967 Y146.635 E10.17433
G1 X107.993 Y147.335 E10.23024
G1 X107.997 Y147.682 E10.25794
G1 X107.972 Y149.434 E10.39781
G1 X107.956 Y149.747 E10.42283
G1 X107.796 Y151.596 E10.57097
G1 X107.767 Y151.84 E10.59059
G1 X107.671 Y152.534 E10.64651
G1 X107.624 Y152.814 E10.66918
G1 X107.107 Y155.338 E10.87484
G1 X107.047 Y155.59 E10.89552
G1 X106.917 Y156.069 E10.93513
G1 X106.858 Y156.261 E10.95117
G1 X106.216 Y158.257 E11.11854
G1 X106.109 Y158.551 E11.14351
G1 X105.542 Y159.959 E11.26467
G1 X105.445 Y160.179 E11.28387
G1 X105.006 Y161.126 E11.36719
G1 X104.862 Y161.409 E11.39253
G1 X103.613 Y163.661 E11.5981
G1 X103.376 Y164.041 E11.63384
G1 X101.906 Y166.153 E11.83925
G1 X101.721 Y166.4 E11.86388
G1 X101.07 Y167.208 E11.94671
G1 X100.862 Y167.452 E11.97231
G1 X99.895 Y168.531 E12.08796
G1 X99.675 Y168.759 E12.11325
G1 X98.153 Y170.229 E12.28216
G1 X98.031 Y170.344 E12.29554
G1 X97.732 Y170.602 E12.32707
G1 X95.44 Y172.403 E12.55975
G1 X95.184 Y172.589 E12.58501
G1 X94.623 Y172.968 E12.63905
G1 X94.283 Y173.183 E12.67117
G1 X92.808 Y174.073 E12.80868
G1 X92.532 Y174.226 E12.83387
G1 X90.982 Y175.014 E12.97267
G1 X90.746 Y175.129 E12.99362
G1 X90.406 Y175.278 E13.02326
G1 X87.639 Y176.348 E13.26007
G1 X87.353 Y176.455 E13.28445
G1 X87.091 Y176.544 E13.30653
G1 X86.795 Y176.634 E13.33123
G1 X86.618 Y176.683 E13.34589
G1 X86.034 Y176.835 E13.39406
G1 X84.392 Y177.247 E13.52919
G1 X84.08 Y177.313 E13.55465
G1 X82.843 Y177.528 E13.65487
G1 X81.904 Y177.664 E13.73061
G1 X81.313 Y177.737 E13.77815
G1 X80.993 Y177.765 E13.80379
G1 X78.523 Y177.888 E14.0012
G1 X78.119 Y177.893 E14.03345
G1 X77.905 Y177.888 E14.05054
G1 X76.715 Y177.829 E14.14564
G1 X74.742 Y177.687 E14.30354
G1 X74.423 Y177.652 E14.32916
G1 X73.58 Y177.529 E14.39717
G1 X73.456 Y177.509 E14.40719
G1 X72.343 Y177.314 E14.49739
G1 X72.032 Y177.248 E14.52277
G1 X70.354 Y176.827 E14.66086
G1 X69.803 Y176.684 E14.7063
G1 X69.411 Y176.562 E14.73908
G1 X67.041 Y175.705 E14.94025
G1 X66.664 Y175.565 E14.97235
G1 X66.401 Y175.457 E14.99505
G1 X65.81 Y175.193 E15.04671
G1 X65.671 Y175.128 E15.05896
G1 X65.371 Y174.981 E15.08563
G1 X63.889 Y174.226 E15.2184
G1 X63.616 Y174.074 E15.24334
G1 X62.144 Y173.188 E15.38048
G1 X61.944 Y173.064 E15.39927
G1 X61.62 Y172.842 E15.43062
G1 X59.14 Y170.978 E15.67827
G1 X58.972 Y170.848 E15.69522
G1 X58.761 Y170.674 E15.71705
G1 X58.506 Y170.45 E15.74415
G1 X58.268 Y170.229 E15.77007
G1 X56.745 Y168.758 E15.93909
G1 X56.525 Y168.53 E15.96438
G1 X55.546 Y167.437 E16.08151
G1 X55.359 Y167.216 E16.10462
G1 X54.705 Y166.408 E16.1876
G1 X54.512 Y166.152 E16.21319
G1 X53.043 Y164.039 E16.41862
G1 X52.807 Y163.66 E16.45426
G1 X51.559 Y161.408 E16.65978
G1 X51.416 Y161.126 E16.68502
G1 X50.977 Y160.179 E16.76834
G1 X50.869 Y159.929 E16.79008
G1 X50.314 Y158.554 E16.90844
G1 X50.206 Y158.257 E16.93367
G1 X49.525 Y156.14 E17.11118
G1 X49.456 Y155.902 E17.13096
G1 X49.368 Y155.564 E17.15884
G1 X49.316 Y155.34 E17.1772
G1 X48.798 Y152.816 E17.38288
G1 X48.749 Y152.529 E17.40612
G1 X48.654 Y151.837 E17.46187
G1 X48.616 Y151.498 E17.4891
G1 X48.465 Y149.752 E17.629
G1 X48.449 Y149.432 E17.65457
G1 X48.424 Y147.559 E17.8041
G1 X48.427 Y147.331 E17.8223
G1 X48.454 Y146.63 E17.8783
G1 X48.474 Y146.351 E17.90063
G1 X48.736 Y143.789 E18.1062
G1 X48.77 Y143.532 E18.1269
G1 X48.826 Y143.187 E18.1548
G1 X48.876 Y142.921 E18.1764
G1 X49.332 Y140.792 E18.3502
G1 X49.407 Y140.494 E18.37473
G1 X49.795 Y139.151 E18.48632
G1 X49.876 Y138.892 E18.50798
G1 X50.248 Y137.818 E18.59871
G1 X50.363 Y137.524 E18.62391
G1 X51.379 Y135.16 E18.8293
G1 X51.577 Y134.757 E18.86515
G1 X52.829 Y132.508 E19.07061
G1 X52.99 Y132.241 E19.0955
G1 X53.56 Y131.369 E19.17866
G1 X53.728 Y131.126 E19.20224
G1 X54.589 Y129.944 E19.31897
G1 X54.788 Y129.691 E19.34467
G1 X56.23 Y127.99 E19.52267
G1 X56.536 Y127.663 E19.55842
G1 X58.64 Y125.64 E19.79141
G1 X58.876 Y125.43 E19.81663
G1 X59.4 Y124.994 E19.87104
G1 X59.677 Y124.776 E19.89918
G1 X61.093 Y123.716 E20.04037
G1 X61.349 Y123.538 E20.06526
G1 X62.828 Y122.588 E20.20558
G1 X63.015 Y122.472 E20.22315
G1 X63.343 Y122.287 E20.25321
G1 X66.068 Y120.905 E20.4971
G1 X66.293 Y120.795 E20.51709
G1 X66.531 Y120.688 E20.53792
G1 X66.828 Y120.564 E20.56362
G1 X66.997 Y120.497 E20.57813
G1 X67.393 Y120.351 E20.61182
G1 X69.143 Y119.719 E20.76034
G1 X69.448 Y119.621 E20.78591
G1 X70.644 Y119.285 E20.88508
G1 X71.278 Y119.124 E20.93729
G1 X71.278 Y82.14 E23.88952
G1 X71.281 Y68.412 E24.98535
G1 X71.281 Y46.5 E26.73446
G1 X71.321 Y45.908 E26.78182
G1 X71.44 Y45.328 E26.82908
G1 X71.636 Y44.768 E26.87644
G1 X71.906 Y44.24 E26.92378
G0 F6000 X72.703 Y44.478
G1 F1200 X73.036 Y44.058 E26.96657
G1 X73.428 Y43.692 E27.00938
G1 X73.87 Y43.389 E27.05215
G1 X74.353 Y43.154 E27.09503
G1 X74.864 Y42.994 E27.13777
G1 X75.394 Y42.911 E27.18059
G1 X75.681 Y42.9 E27.20352
G1 X80.74 Y42.9 E27.60735
G1 X81.275 Y42.94 E27.65018
G1 X81.798 Y43.059 E27.69299
G1 X82.297 Y43.254 E27.73576
G1 X82.762 Y43.522 E27.7786
G1 X83.182 Y43.855 E27.82139
G1 X83.548 Y44.247 E27.8642
G1 X83.851 Y44.689 E27.90697
G1 X84.086 Y45.172 E27.94985
G1 X84.246 Y45.683 E27.99259
G1 X84.329 Y46.213 E28.03541
G1 X84.34 Y46.499 E28.05826
G1 X84.345 Y82.138 E30.90312
G1 X84.344 Y119.768 E33.90691
G1 X84.518 Y119.813 E33.92126
G1 X85.387 Y120.011 E33.9924
G1 X85.563 Y120.056 E34.0069
G1 X86.756 Y120.392 E34.10584
G1 X87 Y120.47 E34.12629
G1 X88.786 Y121.113 E34.27781
G1 X89.152 Y121.249 E34.30898
G1 X89.454 Y121.378 E34.33519
G1 X91.82 Y122.512 E34.54463
G1 X92.095 Y122.647 E34.56908
G1 X92.299 Y122.755 E34.58751
G1 X92.875 Y123.085 E34.6405
G1 X93.218 Y123.297 E34.67269
G1 X94.639 Y124.21 E34.80751
G1 X94.849 Y124.356 E34.82793
G1 X96.25 Y125.405 E34.96764
G1 X96.511 Y125.609 E34.99408
G1 X97.035 Y126.046 E35.04854
G1 X97.224 Y126.215 E35.06878
G1 X99.329 Y128.238 E35.30183
G1 X99.579 Y128.505 E35.33103
G1 X101.022 Y130.206 E35.50908
G1 X101.186 Y130.414 E35.53023
G1 X102.054 Y131.606 E35.64793
G1 X102.188 Y131.803 E35.66695
G1 X102.76 Y132.676 E35.75026
G1 X102.895 Y132.898 E35.771
G1 X104.145 Y135.144 E35.97619
G1 X104.306 Y135.473 E36.00542
G1 X105.323 Y137.839 E36.211
G1 X105.417 Y138.081 E36.23172
G1 X105.785 Y139.146 E36.32167
G1 X105.856 Y139.37 E36.34042
G1 X106.245 Y140.714 E36.45211
G1 X106.307 Y140.959 E36.47228
G1 X106.774 Y143.134 E36.64986
G1 X106.811 Y143.335 E36.66617
G1 X106.865 Y143.681 E36.69413
G1 X106.889 Y143.87 E36.70933
G1 X107.151 Y146.432 E36.91491
G1 X107.168 Y146.664 E36.93348
G1 X107.194 Y147.364 E36.9894
G1 X107.197 Y147.67 E37.01382
G1 X107.172 Y149.422 E37.15369
G1 X107.159 Y149.679 E37.17423
G1 X107.001 Y151.509 E37.32085
G1 X106.975 Y151.73 E37.33862
G1 X106.879 Y152.424 E37.39454
G1 X106.84 Y152.653 E37.41308
G1 X106.323 Y155.177 E37.61874
G1 X106.274 Y155.384 E37.63572
G1 X106.184 Y155.721 E37.66357
G1 X106.096 Y156.016 E37.68814
G1 X105.454 Y158.012 E37.85551
G1 X105.367 Y158.253 E37.87596
G1 X104.808 Y159.64 E37.99533
G1 X104.719 Y159.842 E38.01295
G1 X104.28 Y160.789 E38.09627
G1 X104.162 Y161.021 E38.11705
G1 X102.913 Y163.273 E38.32261
G1 X102.72 Y163.584 E38.35183
G1 X101.25 Y165.696 E38.55723
G1 X101.098 Y165.898 E38.57741
G1 X100.447 Y166.706 E38.66024
G1 X100.258 Y166.927 E38.68345
G1 X99.299 Y167.997 E38.79815
G1 X99.12 Y168.184 E38.81881
G1 X97.604 Y169.647 E38.98699
G1 X97.482 Y169.762 E39.00037
G1 X97.237 Y169.973 E39.02618
G1 X94.945 Y171.774 E39.25886
G1 X94.736 Y171.926 E39.27949
G1 X94.175 Y172.305 E39.33354
G1 X93.86 Y172.504 E39.36328
G1 X92.395 Y173.388 E39.49986
G1 X92.169 Y173.513 E39.52048
G1 X90.632 Y174.295 E39.65813
G1 X90.396 Y174.41 E39.67909
G1 X90.118 Y174.532 E39.70332
G1 X87.358 Y175.599 E39.93953
G1 X87.072 Y175.706 E39.96391
G1 X86.858 Y175.778 E39.98193
G1 X86.562 Y175.868 E40.00662
G1 X86.418 Y175.909 E40.01858
G1 X85.839 Y176.059 E40.06632
G1 X84.197 Y176.471 E40.20146
G1 X83.942 Y176.525 E40.22226
G1 X82.828 Y176.72 E40.31254
G1 X81.885 Y176.859 E40.38863
G1 X81.215 Y176.943 E40.44253
G1 X80.953 Y176.966 E40.46352
G1 X78.483 Y177.089 E40.66093
G1 X78.119 Y177.093 E40.68999
G1 X77.944 Y177.089 E40.70396
G1 X76.773 Y177.031 E40.79755
G1 X74.8 Y176.889 E40.95545
G1 X74.538 Y176.86 E40.97649
G1 X73.594 Y176.721 E41.05266
G1 X72.481 Y176.526 E41.14286
G1 X72.226 Y176.472 E41.16366
G1 X70.555 Y176.053 E41.30118
G1 X70.004 Y175.91 E41.34662
G1 X69.683 Y175.81 E41.37346
G1 X67.32 Y174.955 E41.57405
G1 X66.943 Y174.815 E41.60615
G1 X66.728 Y174.727 E41.6247
G1 X66.137 Y174.463 E41.67637
G1 X65.785 Y174.293 E41.70757
G1 X64.252 Y173.513 E41.84487
G1 X64.029 Y173.389 E41.86524
G1 X62.566 Y172.508 E42.00156
G1 X62.366 Y172.384 E42.02034
G1 X62.1 Y172.202 E42.04607
G1 X59.63 Y170.345 E42.29275
G1 X59.289 Y170.073 E42.32756
G1 X59.034 Y169.849 E42.35466
G1 X58.786 Y169.618 E42.38171
G1 X57.3 Y168.183 E42.54661
G1 X57.12 Y167.996 E42.56733
G1 X56.153 Y166.916 E42.68305
G1 X55.981 Y166.713 E42.70429
G1 X55.327 Y165.905 E42.78726
G1 X55.169 Y165.695 E42.80824
G1 X53.7 Y163.582 E43.01367
G1 X53.507 Y163.272 E43.04282
G1 X52.259 Y161.02 E43.24834
G1 X52.142 Y160.789 E43.26901
G1 X51.703 Y159.842 E43.35233
G1 X51.579 Y159.553 E43.37743
G1 X51.056 Y158.255 E43.48914
G1 X50.968 Y158.012 E43.50977
G1 X50.287 Y155.895 E43.68729
G1 X50.23 Y155.7 E43.7035
G1 X50.142 Y155.362 E43.73138
G1 X50.1 Y155.179 E43.74637
G1 X49.582 Y152.655 E43.95205
G1 X49.541 Y152.421 E43.97101
G1 X49.446 Y151.729 E44.02677
G1 X49.413 Y151.429 E44.05086
G1 X49.262 Y149.683 E44.19075
G1 X49.249 Y149.421 E44.21169
G1 X49.224 Y147.548 E44.36122
G1 X49.227 Y147.361 E44.37614
G1 X49.254 Y146.66 E44.43214
G1 X49.27 Y146.433 E44.45031
G1 X49.532 Y143.871 E44.65588
G1 X49.56 Y143.66 E44.67288
G1 X49.637 Y143.197 E44.71034
G1 X49.673 Y143.015 E44.72515
G1 X50.114 Y140.96 E44.89292
G1 X50.175 Y140.716 E44.913
G1 X50.563 Y139.373 E45.02459
G1 X50.66 Y139.071 E45.04991
G1 X51.004 Y138.08 E45.13365
G1 X51.098 Y137.84 E45.15422
G1 X52.114 Y135.476 E45.35962
G1 X52.276 Y135.146 E45.38896
G1 X53.528 Y132.897 E45.59443
G1 X53.66 Y132.678 E45.61484
G1 X54.23 Y131.806 E45.698
G1 X54.382 Y131.586 E45.71934
G1 X55.235 Y130.415 E45.83499
G1 X55.398 Y130.208 E45.85602
G1 X56.84 Y128.507 E46.03403
G1 X57.091 Y128.24 E46.06328
G1 X59.195 Y126.217 E46.29627
G1 X59.387 Y126.045 E46.31685
G1 X60.006 Y125.532 E46.38102
G1 X60.219 Y125.368 E46.40248
G1 X61.572 Y124.356 E46.53735
G1 X61.782 Y124.211 E46.55772
G1 X63.249 Y123.268 E46.69693
G1 X63.436 Y123.152 E46.7145
G1 X63.705 Y123.001 E46.73912
G1 X66.42 Y121.624 E46.98212
G1 X66.645 Y121.514 E47.00212
G1 X66.839 Y121.426 E47.01912
G1 X67.136 Y121.302 E47.04481
G1 X67.274 Y121.248 E47.05664
G1 X67.665 Y121.103 E47.08993
G1 X69.415 Y120.471 E47.23845
G1 X69.664 Y120.391 E47.25933
G1 X70.954 Y120.03 E47.36626
G1 X71.508 Y119.892 E47.41183
G1 X72.078 Y119.762 E47.4585
G1 X72.078 Y82.14 E50.46165
G1 X72.081 Y68.412 E51.55748
G1 X72.081 Y46.5 E53.30659
G1 X72.121 Y45.965 E53.34942
G1 X72.24 Y45.442 E53.39223
G1 X72.435 Y44.943 E53.435
G1 X72.703 Y44.478 E53.47784
G0 F6000 X73.234 Y45.14
G1 F1200 X73.497 Y44.747 E53.51559
G1 X73.823 Y44.405 E53.5533
G1 X74.202 Y44.122 E53.59106
G1 X74.624 Y43.907 E53.62886
G1 X75.075 Y43.766 E53.66658
G1 X75.681 Y43.7 E53.71524
G1 X80.74 Y43.7 E54.11907
G1 X81.211 Y43.74 E54.15681
G1 X81.669 Y43.859 E54.19458
G1 X82.1 Y44.053 E54.23231
G1 X82.493 Y44.316 E54.27006
G1 X82.835 Y44.642 E54.30777
G1 X83.118 Y45.021 E54.34553
G1 X83.333 Y45.443 E54.38334
G1 X83.474 Y45.894 E54.42105
G1 X83.54 Y46.5 E54.46971
G1 X83.545 Y82.139 E57.31457
G1 X83.544 Y120.421 E60.37041
G1 X83.71 Y120.446 E60.38381
G1 X83.984 Y120.502 E60.40613
G1 X84.326 Y120.59 E60.43432
G1 X85.209 Y120.791 E60.50661
G1 X85.346 Y120.826 E60.5179
G1 X86.539 Y121.162 E60.61683
G1 X86.729 Y121.223 E60.63276
G1 X88.507 Y121.863 E60.7836
G1 X88.873 Y121.999 E60.81477
G1 X89.109 Y122.099 E60.83523
G1 X91.468 Y123.231 E61.04409
G1 X91.743 Y123.366 E61.06855
G1 X91.901 Y123.449 E61.0828
G1 X92.477 Y123.779 E61.13579
G1 X92.786 Y123.97 E61.16478
G1 X94.207 Y124.883 E61.29961
G1 X94.37 Y124.997 E61.31549
G1 X95.76 Y126.037 E61.45406
G1 X95.998 Y126.224 E61.47822
G1 X96.522 Y126.661 E61.53269
G1 X96.669 Y126.792 E61.5484
G1 X98.774 Y128.815 E61.78145
G1 X98.969 Y129.023 E61.80421
G1 X100.412 Y130.724 E61.98227
G1 X100.54 Y130.886 E61.99875
G1 X101.395 Y132.061 E62.11475
G1 X101.519 Y132.241 E62.13219
G1 X102.091 Y133.114 E62.21551
G1 X102.196 Y133.287 E62.23166
G1 X103.446 Y135.533 E62.43684
G1 X103.571 Y135.789 E62.45958
G1 X104.588 Y138.155 E62.66516
G1 X104.661 Y138.344 E62.68133
G1 X105.024 Y139.391 E62.76979
G1 X105.088 Y139.593 E62.7867
G1 X105.477 Y140.937 E62.89839
G1 X105.525 Y141.127 E62.91403
G1 X105.992 Y143.302 E63.09161
G1 X106.021 Y143.458 E63.10427
G1 X106.075 Y143.804 E63.13223
