;FLAVOR:Marlin
;TIME:330
;Filament used: 0.903227m
;Layer height: 0.48
;MINX:104.835
;MINY:54.8
;MINZ:0.24
;MAXX:115.165
;MAXY:163.391
;MAXZ:5.04
;Generated with Cura_SteamEngine 4.13.0
M140 S75
M105
M190 S75
M104 S190
M105
M109 S190
M82 ;absolute extrusion mode
; Script based on an original created by tjjfvi (https://github.com/tjjfvi)
; An up-to-date version of the tjjfvi's original script can be found
; here:  https://csi.t6.fyi/
; Note - This script will only work in Cura V4.2 and above!
; --- Global Settings
; layer_height = 0.48
; smooth_spiralized_contours = True
; magic_mesh_surface_mode = normal
; machine_extruder_count = 1
; --- Single Extruder Settings
; speed_z_hop = 5
; retraction_amount = 10
; retraction_hop = 0.2
; retraction_hop_enabled = False
; retraction_enable = True
; retraction_speed = 30
; retraction_retract_speed = 30
; retraction_prime_speed = 30
; speed_travel = 150.0

; Ender 3 Custom Start G-code
G92 E0 ; Reset Extruder
G28 ; Home all axes
G1 Z2.0 F3000 ; Move Z Axis up little to prevent scratching of Heat Bed
G1 X0.1 Y20 Z0.3 F5000.0 ; Move to start position
G1 X0.1 Y200.0 Z0.3 F1500.0 E15 ; Draw the first line
G1 X0.4 Y200.0 Z0.3 F5000.0 ; Move to side a little
G1 X0.4 Y20 Z0.3 F1500.0 E30 ; Draw the second line
G92 E0 ; Reset Extruder
G1 Z2.0 F3000 ; Move Z Axis up little to prevent scratching of Heat Bed
G1 X5 Y20 Z0.3 F5000.0 ; Move over to prevent blob squish
G92 E0
G92 E0
G1 F1800 E-10
;LAYER_COUNT:11
;LAYER:0
M107
G0 F6000 X105.476 Y56.94 Z0.24
;TYPE:SKIRT
G1 F1800 E0
G1 F1200 X105.814 Y56.453 E0.04732
G1 X106.215 Y56.016 E0.09466
G1 X106.67 Y55.636 E0.14198
G1 X107.173 Y55.322 E0.18932
G1 X107.713 Y55.077 E0.23665
G1 X108.282 Y54.908 E0.28403
G1 X108.868 Y54.817 E0.33137
G1 X109.251 Y54.8 E0.36197
G1 X110.749 Y54.8 E0.48155
G1 X111.341 Y54.84 E0.52891
G1 X111.921 Y54.959 E0.57618
G1 X112.481 Y55.155 E0.62354
G1 X113.009 Y55.425 E0.67088
G1 X113.496 Y55.763 E0.7182
G1 X113.933 Y56.164 E0.76554
G1 X114.313 Y56.619 E0.81286
G1 X114.627 Y57.122 E0.86019
G1 X114.872 Y57.662 E0.90753
G1 X115.041 Y58.231 E0.95491
G1 X115.132 Y58.816 E1.00217
G1 X115.149 Y59.2 E1.03285
G1 X115.15 Y82.13 E2.86322
G1 X115.165 Y98.509 E4.17066
G1 X115.164 Y158.263 E8.94049
G1 X115.124 Y158.855 E8.98785
G1 X115.016 Y159.394 E9.03173
G1 X114.937 Y159.691 E9.05626
G1 X114.742 Y160.263 E9.1045
G1 X114.687 Y160.394 E9.11584
G1 X114.421 Y160.924 E9.16318
G1 X114.086 Y161.414 E9.21056
G1 X113.689 Y161.854 E9.25787
G1 X113.171 Y162.283 E9.31156
G1 X112.747 Y162.583 E9.35302
G1 X112.241 Y162.892 E9.40034
G1 X111.698 Y163.13 E9.44767
G1 X111.128 Y163.293 E9.49499
G1 X110.541 Y163.378 E9.54234
G1 X110.206 Y163.391 E9.5691
G1 X109.794 Y163.391 E9.60199
G1 X109.202 Y163.351 E9.64935
G1 X108.622 Y163.232 E9.69661
G1 X108.062 Y163.036 E9.74397
G1 X107.534 Y162.766 E9.79131
G1 X107.253 Y162.583 E9.81808
G1 X106.829 Y162.283 E9.85954
G1 X106.369 Y161.909 E9.90687
G1 X105.963 Y161.476 E9.95425
G1 X105.62 Y160.992 E10.0016
G1 X105.307 Y160.379 E10.05654
G1 X105.253 Y160.249 E10.06778
G1 X105.068 Y159.708 E10.11342
G1 X104.987 Y159.408 E10.13822
G1 X104.871 Y158.826 E10.1856
G1 X104.835 Y158.258 E10.23103
G1 X104.85 Y135.327 E12.06148
G1 X104.851 Y59.2 E18.13826
G1 X104.891 Y58.608 E18.18563
G1 X105.01 Y58.027 E18.23297
G1 X105.206 Y57.468 E18.28025
G1 X105.476 Y56.94 E18.32759
G0 F6000 X106.273 Y57.178
G1 F1200 X106.606 Y56.758 E18.37038
G1 X106.998 Y56.392 E18.41319
G1 X107.44 Y56.089 E18.45596
G1 X107.923 Y55.854 E18.49884
G1 X108.434 Y55.694 E18.54158
G1 X108.964 Y55.611 E18.58441
G1 X109.251 Y55.6 E18.60733
G1 X110.749 Y55.6 E18.72691
G1 X111.284 Y55.64 E18.76973
G1 X111.807 Y55.759 E18.81255
G1 X112.306 Y55.954 E18.85532
G1 X112.771 Y56.222 E18.89816
G1 X113.191 Y56.555 E18.94094
G1 X113.557 Y56.947 E18.98375
G1 X113.86 Y57.389 E19.02653
G1 X114.095 Y57.872 E19.06941
G1 X114.255 Y58.383 E19.11215
G1 X114.338 Y58.913 E19.15497
G1 X114.349 Y59.2 E19.1779
G1 X114.35 Y82.13 E21.00827
G1 X114.365 Y98.509 E22.31571
G1 X114.364 Y158.263 E27.08554
G1 X114.324 Y158.798 E27.12836
G1 X114.243 Y159.188 E27.16016
G1 X114.164 Y159.485 E27.18469
G1 X114.004 Y159.954 E27.22425
G1 X113.949 Y160.085 E27.23559
G1 X113.705 Y160.562 E27.27835
G1 X113.393 Y160.998 E27.32115
G1 X113.02 Y161.383 E27.36394
G1 X112.709 Y161.63 E27.39564
G1 X112.285 Y161.93 E27.4371
G1 X111.826 Y162.206 E27.47986
G1 X111.33 Y162.411 E27.5227
G1 X110.81 Y162.54 E27.56547
G1 X110.206 Y162.591 E27.61385
G1 X109.794 Y162.591 E27.64674
G1 X109.259 Y162.551 E27.68956
G1 X108.736 Y162.432 E27.73238
G1 X108.237 Y162.237 E27.77515
G1 X107.715 Y161.93 E27.82349
G1 X107.291 Y161.63 E27.86495
G1 X106.877 Y161.288 E27.90781
G1 X106.519 Y160.889 E27.9506
G1 X106.224 Y160.441 E27.99342
G1 X106.045 Y160.072 E28.02616
G1 X105.991 Y159.942 E28.0374
G1 X105.84 Y159.499 E28.07476
G1 X105.759 Y159.199 E28.09956
G1 X105.659 Y158.673 E28.1423
G1 X105.635 Y158.259 E28.1754
G1 X105.65 Y135.328 E30.00585
G1 X105.651 Y59.2 E36.08272
G1 X105.691 Y58.665 E36.12555
G1 X105.81 Y58.142 E36.16836
G1 X106.005 Y57.643 E36.21113
G1 X106.273 Y57.178 E36.25397
G0 F6000 X106.804 Y57.84
G1 F1200 X107.067 Y57.447 E36.29172
G1 X107.393 Y57.105 E36.32943
G1 X107.772 Y56.822 E36.36719
G1 X108.194 Y56.607 E36.40499
G1 X108.645 Y56.466 E36.44271
G1 X109.251 Y56.4 E36.49137
G1 X110.749 Y56.4 E36.61095
G1 X111.22 Y56.44 E36.64868
G1 X111.678 Y56.559 E36.68646
G1 X112.109 Y56.753 E36.72418
G1 X112.502 Y57.016 E36.76193
G1 X112.844 Y57.342 E36.79965
G1 X113.127 Y57.721 E36.83741
G1 X113.342 Y58.143 E36.87521
G1 X113.483 Y58.594 E36.91293
G1 X113.549 Y59.2 E36.96159
G1 X113.55 Y82.13 E38.79196
G1 X113.565 Y98.509 E40.0994
G1 X113.564 Y158.263 E44.86923
G1 X113.524 Y158.734 E44.90696
G1 X113.47 Y158.983 E44.9273
G1 X113.391 Y159.28 E44.95183
G1 X113.267 Y159.644 E44.98253
G1 X113.212 Y159.775 E44.99387
G1 X112.992 Y160.194 E45.03164
G1 X112.706 Y160.57 E45.06935
G1 X112.247 Y160.977 E45.11832
G1 X111.823 Y161.277 E45.15978
G1 X111.416 Y161.516 E45.19746
G1 X110.973 Y161.684 E45.23528
G1 X110.509 Y161.775 E45.27302
G1 X110.206 Y161.791 E45.29724
G1 X109.794 Y161.791 E45.33013
G1 X109.323 Y161.751 E45.36786
G1 X108.865 Y161.632 E45.40564
G1 X108.434 Y161.438 E45.44337
G1 X108.177 Y161.277 E45.46757
G1 X107.753 Y160.977 E45.50903
G1 X107.391 Y160.672 E45.54682
G1 X107.086 Y160.311 E45.58454
G1 X106.784 Y159.765 E45.63435
G1 X106.73 Y159.635 E45.64559
G1 X106.613 Y159.291 E45.67459
G1 X106.532 Y158.991 E45.6994
G1 X106.448 Y158.526 E45.73712
G1 X106.435 Y158.259 E45.75845
G1 X106.45 Y135.328 E47.58891
G1 X106.451 Y59.2 E53.66577
G1 X106.491 Y58.729 E53.70351
G1 X106.61 Y58.271 E53.74128
G1 X106.804 Y57.84 E53.77901
G0 F6000 X107.601 Y58.07
G1 F1200 X107.858 Y57.765 E53.81085
G1 X108.171 Y57.517 E53.84272
G1 X108.527 Y57.336 E53.8746
G1 X108.912 Y57.229 E53.9065
G1 X109.251 Y57.2 E53.93366
G1 X110.749 Y57.2 E54.05323
G1 X111.147 Y57.24 E54.08517
G1 X111.528 Y57.358 E54.117
G1 X111.879 Y57.55 E54.14894
G1 X112.184 Y57.807 E54.18078
G1 X112.432 Y58.12 E54.21265
G1 X112.613 Y58.476 E54.24453
G1 X112.72 Y58.861 E54.27643
G1 X112.749 Y59.2 E54.30359
G1 X112.75 Y82.13 E56.13396
G1 X112.765 Y98.509 E57.4414
G1 X112.764 Y158.263 E62.21123
G1 X112.697 Y158.777 E62.2526
G1 X112.618 Y159.074 E62.27714
G1 X112.529 Y159.334 E62.29907
G1 X112.474 Y159.465 E62.31041
G1 X112.283 Y159.816 E62.34231
G1 X112.027 Y160.122 E62.37416
G1 X111.785 Y160.324 E62.39932
G1 X111.361 Y160.624 E62.44078
G1 X111.014 Y160.821 E62.47263
G1 X110.634 Y160.945 E62.50454
G1 X110.206 Y160.991 E62.5389
G1 X109.794 Y160.991 E62.57179
G1 X109.396 Y160.951 E62.60372
G1 X109.015 Y160.833 E62.63556
G1 X108.639 Y160.624 E62.6699
G1 X108.215 Y160.324 E62.71136
G1 X107.913 Y160.061 E62.74333
G1 X107.67 Y159.745 E62.77515
G1 X107.523 Y159.458 E62.80089
G1 X107.469 Y159.328 E62.81212
G1 X107.385 Y159.082 E62.83287
G1 X107.304 Y158.782 E62.85768
G1 X107.235 Y158.26 E62.89971
G1 X107.25 Y135.329 E64.73016
G1 X107.251 Y59.2 E70.80711
G1 X107.291 Y58.802 E70.83904
G1 X107.409 Y58.421 E70.87087
G1 X107.601 Y58.07 E70.90281
G0 F6000 X108.208 Y58.606
G1 F1200 X108.394 Y58.36 E70.92743
G1 X108.638 Y58.169 E70.95216
G1 X108.921 Y58.046 E70.9768
G1 X109.251 Y58 E71.00339
G1 X110.749 Y58 E71.12297
G1 X111.056 Y58.04 E71.14768
G1 X111.342 Y58.157 E71.17235
G1 X111.589 Y58.343 E71.19703
G1 X111.78 Y58.586 E71.2217
G1 X111.903 Y58.87 E71.24641
G1 X111.949 Y59.2 E71.273
G1 X111.95 Y82.13 E73.10338
G1 X111.965 Y98.509 E74.41082
G1 X111.964 Y158.263 E79.18064
G1 X111.924 Y158.571 E79.20543
G1 X111.845 Y158.868 E79.22997
G1 X111.736 Y159.156 E79.25455
G1 X111.581 Y159.423 E79.27919
G1 X111.323 Y159.671 E79.30776
G1 X110.899 Y159.971 E79.34922
G1 X110.626 Y160.115 E79.37386
G1 X110.206 Y160.191 E79.40793
G1 X109.794 Y160.191 E79.44081
G1 X109.487 Y160.151 E79.46553
G1 X109.101 Y159.971 E79.49953
G1 X108.677 Y159.671 E79.54099
G1 X108.45 Y159.461 E79.56567
G1 X108.262 Y159.151 E79.59461
G1 X108.157 Y158.874 E79.61826
G1 X108.076 Y158.574 E79.64306
G1 X108.035 Y158.26 E79.66834
G1 X108.05 Y135.329 E81.49879
G1 X108.051 Y59.199 E87.57582
G1 X108.091 Y58.893 E87.60045
G1 X108.208 Y58.606 E87.62519
G0 F6000 X108.891 Y59.026
G1 F1200 X109.001 Y58.887 E87.63934
G1 X109.251 Y58.8 E87.66047
G1 X110.749 Y58.8 E87.78005
G1 X110.922 Y58.84 E87.79422
G1 X111.061 Y58.95 E87.80837
G1 X111.149 Y59.2 E87.82953
G1 X111.15 Y82.13 E89.6599
G1 X111.165 Y98.509 E90.96734
G1 X111.164 Y158.263 E95.73717
G1 X111.151 Y158.366 E95.74545
G1 X111.072 Y158.663 E95.76999
G1 X110.999 Y158.846 E95.78571
G1 X110.861 Y159.018 E95.80332
G1 X110.437 Y159.318 E95.84478
G1 X110.206 Y159.391 E95.86411
G1 X109.794 Y159.391 E95.897
G1 X109.563 Y159.318 E95.91634
G1 X109.139 Y159.018 E95.9578
G1 X108.947 Y158.714 E95.9865
G1 X108.93 Y158.665 E95.99064
G1 X108.849 Y158.365 E96.01545
G1 X108.835 Y158.261 E96.02382
G1 X108.85 Y135.33 E97.85428
G1 X108.851 Y59.2 E103.9313
G1 X108.891 Y59.026 E103.94555
G1 F1800 E93.94555
;MESH:Lolly Stick.STL
G0 F6000 X109.665 Y59.614
G0 X110.046 Y158.492
G1 F1800 E103.94555
G0 F6000 X110.078 Y158.591
;TYPE:WALL-OUTER
G1 F1200 X109.922 Y158.591 E103.95801
G1 X109.695 Y158.43 E103.98022
G1 X109.635 Y158.208 E103.99858
G1 X109.65 Y135.33 E105.8248
G1 X109.651 Y59.6 E111.8699
G1 X110.349 Y59.6 E111.92561
G1 X110.35 Y82.13 E113.72405
G1 X110.365 Y98.509 E115.0315
G1 X110.364 Y158.207 E119.79685
G1 X110.305 Y158.43 E119.81526
G1 X110.078 Y158.591 E119.83748
;MESH:NONMESH
G0 F300 X110.078 Y158.591 Z0.72
G0 F6000 X110.084 Y158.512
;TIME_ELAPSED:82.255503
;LAYER:1
M106 S85
;TYPE:WALL-INNER
;MESH:Lolly Stick.STL
G1 F1350 X109.913 Y158.511 E119.86478
G1 X109.764 Y158.382 E119.89624
G1 X109.717 Y158.179 E119.92951
G1 X109.728 Y123.734 E125.42861
G1 X109.728 Y93.726 E130.21934
G1 X109.729 Y60.4 E135.53979
G1 X110.271 Y60.4 E135.62632
G1 X110.272 Y93.726 E139.2421
G1 X110.283 Y124.207 E143.13403
G1 X110.282 Y158.185 E147.5268
G1 X110.237 Y158.381 E147.54774
G1 X110.084 Y158.512 E147.5799
G0 F7500 X110.119 Y159.333
;TYPE:WALL-OUTER
G1 F1350 X109.881 Y159.333 E147.61789
G1 X109.611 Y159.258 E147.66263
G1 X109.323 Y159.1 E147.71507
G1 X109.088 Y158.823 E147.77307
G1 X108.975 Y158.592 E147.81412
G1 X108.955 Y158.519 E147.82621
G1 X108.917 Y158.23 E147.87274
G1 X108.928 Y123.734 E153.37998
G1 X108.929 Y59.6 E163.61889
G1 X111.071 Y59.6 E163.96085
G1 X111.072 Y93.726 E169.40902
G1 X111.083 Y124.207 E174.27528
G1 X111.082 Y158.234 E179.70764
G1 X111.041 Y158.55 E179.75851
G1 X111.027 Y158.588 E179.76498
G1 X110.911 Y158.824 E179.80696
G1 X110.674 Y159.101 E179.86516
G1 X110.389 Y159.258 E179.91711
G1 X110.119 Y159.333 E179.96184
G0 F7500 X110.001 Y158.462
G0 X110.392 Y158.873
;TYPE:SKIN
G1 F1350 X110.55 Y158.715 E179.97968
;MESH:NONMESH
G0 F300 X110.55 Y158.715 Z1.2
G0 F7500 X109.923 Y159.031
;TIME_ELAPSED:100.562938
;LAYER:2
M106 S170
;TYPE:WALL-INNER
;MESH:Lolly Stick.STL
G1 F1500 X109.712 Y158.983 E180.01423
G1 X109.49 Y158.847 E180.05579
G1 X109.288 Y158.563 E180.11143
G1 X109.214 Y158.197 E180.17104
G1 X109.214 Y116.986 E186.75032
G1 X109.221 Y87.257 E191.49652
G1 X109.221 Y60.4 E195.7842
G1 X110.779 Y60.4 E196.03294
G1 X110.78 Y130.202 E207.17673
G1 X110.786 Y158.19 E211.64498
G1 X110.709 Y158.571 E211.70703
G1 X110.524 Y158.834 E211.75837
G1 X110.305 Y158.977 E211.80012
G1 X110.189 Y159.01 E211.81938
G1 X109.923 Y159.031 E211.86198
G0 F9000 X109.897 Y159.836
;TYPE:WALL-OUTER
G1 F1500 X109.67 Y159.802 E211.89862
G1 X109.415 Y159.73 E211.94092
G1 X109.15 Y159.591 E211.9887
G1 X108.96 Y159.45 E212.02647
G1 X108.786 Y159.27 E212.06644
G1 X108.722 Y159.191 E212.08267
G1 X108.551 Y158.884 E212.13877
G1 X108.451 Y158.569 E212.19154
G1 X108.414 Y158.243 E212.24391
G1 X108.414 Y116.986 E218.83054
G1 X108.421 Y87.257 E223.57673
G1 X108.421 Y59.6 E227.99214
G1 X111.579 Y59.6 E228.49631
G1 X111.58 Y130.202 E239.76782
G1 X111.586 Y158.24 E244.24405
G1 X111.547 Y158.574 E244.29773
G1 X111.448 Y158.887 E244.35014
G1 X111.283 Y159.186 E244.40467
G1 X111.217 Y159.266 E244.42122
G1 X111.039 Y159.452 E244.46232
G1 X110.671 Y159.694 E244.53264
G1 X110.581 Y159.731 E244.54818
G1 X110.33 Y159.802 E244.58982
G1 X109.897 Y159.836 E244.65916
G0 F9000 X109.927 Y158.957
;TYPE:SKIN
G1 F1500 X110.049 Y158.698
G1 X109.537 Y158.186 E244.77476
G0 F9000 X110.465 Y157.983
G1 F1500 X109.533 Y157.051 E244.98518
G0 F9000 X110.465 Y156.851
G1 F1500 X109.533 Y155.919 E245.19561
G0 F9000 X110.465 Y155.72
G1 F1500 X109.533 Y154.788 E245.40603
G0 F9000 X110.464 Y154.588
G1 F1500 X109.533 Y153.657 E245.61623
G0 F9000 X110.464 Y153.457
G1 F1500 X109.533 Y152.525 E245.82654
G0 F9000 X110.464 Y152.325
G1 F1500 X109.533 Y151.394 E246.03674
G0 F9000 X110.464 Y151.194
G1 F1500 X109.533 Y150.263 E246.24694
G0 F9000 X110.464 Y150.062
G1 F1500 X109.533 Y149.131 E246.45714
G0 F9000 X110.464 Y148.93
G1 F1500 X109.533 Y148 E246.66722
G0 F9000 X110.464 Y147.799
G1 F1500 X109.533 Y146.868 E246.87742
G0 F9000 X110.463 Y146.667
G1 F1500 X109.533 Y145.737 E247.08739
G0 F9000 X110.463 Y145.536
G1 F1500 X109.533 Y144.606 E247.29737
G0 F9000 X110.463 Y144.404
G1 F1500 X109.533 Y143.474 E247.50734
G0 F9000 X110.462 Y143.272
G1 F1500 X109.533 Y142.343 E247.71709
G0 F9000 X110.462 Y142.141
G1 F1500 X109.533 Y141.212 E247.92683
G0 F9000 X110.462 Y141.009
G1 F1500 X109.533 Y140.08 E248.13658
G0 F9000 X110.462 Y139.877
G1 F1500 X109.533 Y138.949 E248.34622
G0 F9000 X110.462 Y138.746
G1 F1500 X109.533 Y137.817 E248.55596
G0 F9000 X110.462 Y137.615
G1 F1500 X109.533 Y136.686 E248.76571
G0 F9000 X110.461 Y136.482
G1 F1500 X109.533 Y135.555 E248.97512
G0 F9000 X110.461 Y135.351
G1 F1500 X109.533 Y134.423 E249.18464
G0 F9000 X110.461 Y134.22
G1 F1500 X109.533 Y133.292 E249.39416
G0 F9000 X110.46 Y133.088
G1 F1500 X109.533 Y132.161 E249.60346
G0 F9000 X110.46 Y131.956
G1 F1500 X109.533 Y131.029 E249.81275
G0 F9000 X110.46 Y130.825
G1 F1500 X109.533 Y129.898 E250.02205
G0 F9000 X110.459 Y129.693
G1 F1500 X109.533 Y128.766 E250.23123
G0 F9000 X110.459 Y128.561
G1 F1500 X109.533 Y127.635 E250.4403
G0 F9000 X110.459 Y127.43
G1 F1500 X109.533 Y126.504 E250.64937
G0 F9000 X110.459 Y126.299
G1 F1500 X109.533 Y125.372 E250.85855
G0 F9000 X110.459 Y125.167
G1 F1500 X109.533 Y124.241 E251.06762
G0 F9000 X110.459 Y124.036
G1 F1500 X109.533 Y123.11 E251.27669
G0 F9000 X110.459 Y122.905
G1 F1500 X109.533 Y121.978 E251.48588
G0 F9000 X110.459 Y121.773
G1 F1500 X109.533 Y120.847 E251.69494
G0 F9000 X110.459 Y120.642
G1 F1500 X109.533 Y119.716 E251.90401
G0 F9000 X110.459 Y119.51
G1 F1500 X109.533 Y118.584 E252.11308
G0 F9000 X110.459 Y118.379
G1 F1500 X109.533 Y117.453 E252.32215
G0 F9000 X110.459 Y117.248
G1 F1500 X109.533 Y116.321 E252.53134
G0 F9000 X110.459 Y116.116
G1 F1500 X109.533 Y115.19 E252.74041
G0 F9000 X110.459 Y114.985
G1 F1500 X109.533 Y114.059 E252.94948
G0 F9000 X110.459 Y113.854
G1 F1500 X109.534 Y112.928 E253.15843
G0 F9000 X110.459 Y112.722
G1 F1500 X109.534 Y111.797 E253.36728
G0 F9000 X110.459 Y111.591
G1 F1500 X109.535 Y110.666 E253.57601
G0 F9000 X110.459 Y110.459
G1 F1500 X109.535 Y109.535 E253.78463
G0 F9000 X110.459 Y109.328
