;FLAVOR:Marlin
;TIME:10053
;Filament used: 32.9053m
;Layer height: 0.48
;MINX:38.91
;MINY:38.91
;MINZ:0.24
;MAXX:181.09
;MAXY:181.09
;MAXZ:24.24
;Generated with Cura_SteamEngine 4.13.0
M140 S75
M105
M190 S75
M104 S190
M105
M109 S190
M82 ;absolute extrusion mode
; Script based on an original created by tjjfvi (https://github.com/tjjfvi)
; An up-to-date version of the tjjfvi's original script can be found
; here:  https://csi.t6.fyi/
; Note - This script will only work in Cura V4.2 and above!
; --- Global Settings
; layer_height = 0.48
; smooth_spiralized_contours = True
; magic_mesh_surface_mode = normal
; machine_extruder_count = 1
; --- Single Extruder Settings
; speed_z_hop = 5
; retraction_amount = 10
; retraction_hop = 0.2
; retraction_hop_enabled = False
; retraction_enable = True
; retraction_speed = 30
; retraction_retract_speed = 30
; retraction_prime_speed = 30
; speed_travel = 150.0

; Ender 3 Custom Start G-code
G92 E0 ; Reset Extruder
G28 ; Home all axes
G1 Z2.0 F3000 ; Move Z Axis up little to prevent scratching of Heat Bed
G1 X0.1 Y20 Z0.3 F5000.0 ; Move to start position
G1 X0.1 Y200.0 Z0.3 F1500.0 E15 ; Draw the first line
G1 X0.4 Y200.0 Z0.3 F5000.0 ; Move to side a little
G1 X0.4 Y20 Z0.3 F1500.0 E30 ; Draw the second line
G92 E0 ; Reset Extruder
G1 Z2.0 F3000 ; Move Z Axis up little to prevent scratching of Heat Bed
G1 X5 Y20 Z0.3 F5000.0 ; Move over to prevent blob squish
G92 E0
G92 E0
G1 F1800 E-10
;LAYER_COUNT:51
;LAYER:0
M107
G0 F6000 X57.445 Y62.127 Z0.24
;TYPE:SKIRT
G1 F1800 E0
G1 F1200 X62.146 Y57.429 E0.53052
G1 X62.735 Y56.898 E0.59382
G1 X67.906 Y52.711 E1.12494
G1 X68.549 Y52.245 E1.18833
G1 X74.099 Y48.64 E1.71661
G1 X74.789 Y48.241 E1.78024
G1 X80.716 Y45.221 E2.31123
G1 X81.441 Y44.898 E2.37459
G1 X87.641 Y42.517 E2.90474
G1 X88.399 Y42.271 E2.96835
G1 X94.836 Y40.546 E3.50031
G1 X95.615 Y40.38 E3.56389
G1 X102.189 Y39.34 E4.09518
G1 X102.98 Y39.257 E4.15867
G1 X109.613 Y38.91 E4.68887
G1 X110.409 Y38.91 E4.75241
G1 X117.042 Y39.259 E5.28261
G1 X117.834 Y39.343 E5.34619
G1 X124.408 Y40.386 E5.87752
G1 X125.184 Y40.551 E5.94085
G1 X131.602 Y42.271 E6.47124
G1 X132.358 Y42.516 E6.53468
G1 X138.537 Y44.887 E7.06298
G1 X139.263 Y45.21 E7.1264
G1 X145.19 Y48.228 E7.65733
G1 X145.882 Y48.628 E7.72113
G1 X151.469 Y52.258 E8.25298
G1 X152.111 Y52.725 E8.31635
G1 X157.28 Y56.911 E8.84729
G1 X157.873 Y57.445 E8.91099
G1 X162.571 Y62.146 E9.44151
G1 X163.102 Y62.735 E9.50481
G1 X167.289 Y67.906 E10.03593
G1 X167.755 Y68.549 E10.09932
G1 X171.36 Y74.099 E10.6276
G1 X171.759 Y74.789 E10.69123
G1 X174.779 Y80.716 E11.22222
G1 X175.102 Y81.441 E11.28558
G1 X177.483 Y87.641 E11.81573
G1 X177.729 Y88.399 E11.87934
G1 X179.452 Y94.828 E12.41064
G1 X179.601 Y95.507 E12.46613
G1 X180.452 Y100.457 E12.86706
G1 X180.51 Y100.858 E12.8994
G1 X180.701 Y102.484 E13.03009
G1 X180.743 Y102.974 E13.06935
G1 X181.09 Y109.613 E13.60002
G1 X181.09 Y110.409 E13.66356
G1 X180.741 Y117.042 E14.19377
G1 X180.657 Y117.834 E14.25735
G1 X179.614 Y124.408 E14.78868
G1 X179.449 Y125.184 E14.852
G1 X177.729 Y131.602 E15.3824
G1 X177.484 Y132.358 E15.44583
G1 X175.113 Y138.537 E15.97413
G1 X174.79 Y139.263 E16.03756
G1 X171.772 Y145.19 E16.56848
G1 X171.373 Y145.88 E16.63211
G1 X167.757 Y151.449 E17.16214
G1 X167.29 Y152.093 E17.22564
G1 X163.09 Y157.28 E17.7584
G1 X162.555 Y157.873 E17.82216
G1 X157.854 Y162.571 E18.35268
G1 X157.265 Y163.102 E18.41598
G1 X152.094 Y167.289 E18.9471
G1 X151.451 Y167.755 E19.01049
G1 X145.901 Y171.36 E19.53877
G1 X145.211 Y171.759 E19.60239
G1 X139.284 Y174.779 E20.13339
G1 X138.559 Y175.102 E20.19674
G1 X132.359 Y177.483 E20.72689
G1 X131.601 Y177.729 E20.79051
G1 X125.164 Y179.454 E21.32247
G1 X124.385 Y179.62 E21.38605
G1 X117.811 Y180.66 E21.91734
G1 X117.02 Y180.743 E21.98083
G1 X110.387 Y181.09 E22.51102
G1 X109.591 Y181.09 E22.57457
G1 X102.958 Y180.741 E23.10477
G1 X102.166 Y180.657 E23.16835
G1 X95.592 Y179.614 E23.69968
G1 X94.817 Y179.449 E23.76293
G1 X88.408 Y177.733 E24.29254
G1 X87.901 Y177.578 E24.33486
G1 X85.902 Y176.89 E24.50362
G1 X85.533 Y176.753 E24.53504
G1 X81.322 Y175.055 E24.89747
G1 X80.715 Y174.778 E24.95074
G1 X74.808 Y171.77 E25.47987
G1 X74.116 Y171.371 E25.54364
G1 X68.531 Y167.742 E26.0753
G1 X67.889 Y167.275 E26.13867
G1 X62.719 Y163.088 E26.66973
G1 X62.126 Y162.554 E26.73343
G1 X57.429 Y157.854 E27.26384
G1 X56.898 Y157.265 E27.32714
G1 X52.711 Y152.094 E27.85826
G1 X52.244 Y151.45 E27.92176
G1 X48.628 Y145.881 E28.45179
G1 X48.229 Y145.19 E28.51548
G1 X45.211 Y139.262 E29.04648
G1 X44.888 Y138.536 E29.10991
G1 X42.509 Y132.335 E29.64007
G1 X42.263 Y131.578 E29.70361
G1 X40.546 Y125.162 E30.23379
G1 X40.382 Y124.386 E30.2971
G1 X39.341 Y117.812 E30.8284
G1 X39.257 Y117.02 E30.89198
G1 X38.91 Y110.387 E31.42218
G1 X38.91 Y109.592 E31.48564
G1 X39.258 Y102.961 E32.01568
G1 X39.3 Y102.47 E32.05502
G1 X39.49 Y100.856 E32.18474
G1 X39.548 Y100.457 E32.21693
G1 X40.401 Y95.496 E32.61875
G1 X40.55 Y94.816 E32.67432
G1 X42.271 Y88.397 E33.20481
G1 X42.516 Y87.642 E33.26817
G1 X44.887 Y81.463 E33.79647
G1 X45.21 Y80.737 E33.8599
G1 X48.228 Y74.81 E34.39082
G1 X48.627 Y74.12 E34.45444
G1 X52.243 Y68.551 E34.98447
G1 X52.71 Y67.907 E35.04798
G1 X56.91 Y62.72 E35.58074
G1 X57.445 Y62.127 E35.64449
G0 F6000 X58.01 Y62.693
G1 F1200 X62.711 Y57.995 E36.17501
G1 X63.239 Y57.52 E36.2317
G1 X68.41 Y53.333 E36.76282
G1 X68.985 Y52.915 E36.81957
G1 X74.535 Y49.31 E37.34785
G1 X75.152 Y48.954 E37.40471
G1 X81.079 Y45.934 E37.93571
G1 X81.728 Y45.645 E37.99242
G1 X87.928 Y43.264 E38.52257
G1 X88.606 Y43.044 E38.57947
G1 X95.043 Y41.319 E39.11143
G1 X95.74 Y41.171 E39.1683
G1 X102.314 Y40.131 E39.69959
G1 X103.022 Y40.056 E39.75643
G1 X109.655 Y39.709 E40.28663
G1 X110.367 Y39.709 E40.34346
G1 X117 Y40.058 E40.87367
G1 X117.709 Y40.133 E40.93058
G1 X124.283 Y41.176 E41.46191
G1 X124.977 Y41.324 E41.51855
G1 X131.395 Y43.044 E42.04894
G1 X132.071 Y43.263 E42.10566
G1 X138.25 Y45.634 E42.63396
G1 X138.9 Y45.923 E42.69075
G1 X144.827 Y48.941 E43.22167
G1 X145.446 Y49.299 E43.27875
G1 X151.033 Y52.929 E43.8106
G1 X151.608 Y53.347 E43.86734
G1 X156.777 Y57.533 E44.39828
G1 X157.307 Y58.01 E44.4552
G1 X162.005 Y62.711 E44.98572
G1 X162.48 Y63.239 E45.04242
G1 X166.667 Y68.41 E45.57353
G1 X167.085 Y68.985 E45.63028
G1 X170.69 Y74.535 E46.15856
G1 X171.046 Y75.152 E46.21542
G1 X174.066 Y81.079 E46.74642
G1 X174.355 Y81.728 E46.80313
G1 X176.736 Y87.928 E47.33328
G1 X176.956 Y88.606 E47.39018
G1 X178.679 Y95.035 E47.92148
G1 X178.813 Y95.643 E47.97118
G1 X179.664 Y100.593 E48.3721
G1 X179.716 Y100.952 E48.40106
G1 X179.907 Y102.578 E48.53175
G1 X179.944 Y103.016 E48.56683
G1 X180.291 Y109.655 E49.09751
G1 X180.291 Y110.367 E49.15435
G1 X179.942 Y117 E49.68455
G1 X179.867 Y117.709 E49.74146
G1 X178.824 Y124.283 E50.27279
G1 X178.676 Y124.977 E50.32944
G1 X176.956 Y131.395 E50.85983
G1 X176.737 Y132.071 E50.91655
G1 X174.366 Y138.25 E51.44485
G1 X174.077 Y138.9 E51.50163
G1 X171.059 Y144.827 E52.03256
G1 X170.702 Y145.444 E52.08946
G1 X167.086 Y151.013 E52.61949
G1 X166.668 Y151.589 E52.6763
G1 X162.468 Y156.776 E53.20906
G1 X161.99 Y157.307 E53.26609
G1 X157.289 Y162.005 E53.79661
G1 X156.761 Y162.48 E53.85331
G1 X151.59 Y166.667 E54.38442
G1 X151.015 Y167.085 E54.44117
G1 X145.465 Y170.69 E54.96945
G1 X144.848 Y171.046 E55.02631
G1 X138.921 Y174.066 E55.55731
G1 X138.272 Y174.355 E55.61402
G1 X132.072 Y176.736 E56.14417
G1 X131.394 Y176.956 E56.20107
G1 X124.957 Y178.681 E56.73303
G1 X124.26 Y178.829 E56.78991
G1 X117.686 Y179.869 E57.3212
G1 X116.978 Y179.944 E57.37803
G1 X110.345 Y180.291 E57.90823
G1 X109.633 Y180.291 E57.96506
G1 X103 Y179.942 E58.49527
G1 X102.291 Y179.867 E58.55218
G1 X95.717 Y178.824 E59.08351
G1 X95.024 Y178.677 E59.14006
G1 X88.615 Y176.961 E59.66967
G1 X88.161 Y176.822 E59.70757
G1 X86.162 Y176.134 E59.87633
G1 X85.832 Y176.011 E59.90444
G1 X81.621 Y174.313 E60.26688
G1 X81.078 Y174.066 E60.3145
G1 X75.171 Y171.058 E60.84364
G1 X74.552 Y170.7 E60.90072
G1 X68.967 Y167.071 E61.43238
G1 X68.392 Y166.653 E61.48913
G1 X63.222 Y162.466 E62.02018
G1 X62.692 Y161.989 E62.0771
G1 X57.995 Y157.289 E62.60751
G1 X57.52 Y156.761 E62.6642
G1 X53.333 Y151.59 E63.19532
G1 X52.915 Y151.014 E63.25213
G1 X49.299 Y145.445 E63.78216
G1 X48.942 Y144.827 E63.83913
G1 X45.924 Y138.899 E64.37013
G1 X45.635 Y138.25 E64.42684
G1 X43.256 Y132.049 E64.95701
G1 X43.036 Y131.371 E65.0139
G1 X41.319 Y124.955 E65.54408
G1 X41.172 Y124.261 E65.60071
G1 X40.131 Y117.687 E66.13201
G1 X40.056 Y116.978 E66.18892
G1 X39.709 Y110.345 E66.71912
G1 X39.709 Y109.634 E66.77588
G1 X40.057 Y103.003 E67.30592
G1 X40.095 Y102.564 E67.34109
G1 X40.285 Y100.95 E67.47082
G1 X40.336 Y100.593 E67.49961
G1 X41.189 Y95.632 E67.90142
G1 X41.323 Y95.023 E67.9512
G1 X43.044 Y88.604 E68.48169
G1 X43.263 Y87.929 E68.53834
G1 X45.634 Y81.75 E69.06664
G1 X45.923 Y81.1 E69.12342
G1 X48.941 Y75.173 E69.65434
G1 X49.298 Y74.556 E69.71124
G1 X52.914 Y68.987 E70.24128
G1 X53.332 Y68.411 E70.29809
G1 X57.532 Y63.224 E70.83085
G1 X58.01 Y62.693 E70.88788
G0 F6000 X58.576 Y63.259
G1 F1200 X63.277 Y58.561 E71.4184
G1 X63.742 Y58.142 E71.46836
G1 X68.913 Y53.955 E71.99948
G1 X69.421 Y53.586 E72.0496
G1 X74.971 Y49.981 E72.57788
G1 X75.515 Y49.667 E72.62802
G1 X81.442 Y46.647 E73.15902
G1 X82.015 Y46.392 E73.20908
G1 X88.215 Y44.011 E73.73923
G1 X88.813 Y43.816 E73.78944
G1 X95.25 Y42.091 E74.3214
G1 X95.865 Y41.961 E74.37158
G1 X102.439 Y40.921 E74.90287
G1 X103.064 Y40.855 E74.95304
G1 X109.697 Y40.508 E75.48323
G1 X110.325 Y40.508 E75.53336
G1 X116.958 Y40.857 E76.06357
G1 X117.583 Y40.923 E76.11374
G1 X124.157 Y41.966 E76.64507
G1 X124.77 Y42.097 E76.6951
G1 X131.188 Y43.817 E77.2255
G1 X131.784 Y44.01 E77.2755
G1 X137.963 Y46.381 E77.8038
G1 X138.537 Y46.636 E77.85394
G1 X144.464 Y49.654 E78.38486
G1 X145.01 Y49.97 E78.43522
G1 X150.597 Y53.6 E78.96707
G1 X151.104 Y53.968 E79.01707
G1 X156.273 Y58.154 E79.54802
G1 X156.741 Y58.576 E79.59832
G1 X161.439 Y63.277 E80.12884
G1 X161.858 Y63.742 E80.1788
G1 X166.045 Y68.913 E80.70992
G1 X166.414 Y69.421 E80.76004
G1 X170.019 Y74.971 E81.28832
G1 X170.333 Y75.515 E81.33846
G1 X173.353 Y81.442 E81.86946
G1 X173.608 Y82.015 E81.91952
G1 X175.989 Y88.215 E82.44967
G1 X176.183 Y88.813 E82.49986
G1 X177.906 Y95.242 E83.03116
G1 X178.024 Y95.778 E83.07497
G1 X178.875 Y100.728 E83.4759
G1 X178.921 Y101.045 E83.50146
G1 X179.112 Y102.671 E83.63215
G1 X179.145 Y103.058 E83.66316
G1 X179.492 Y109.697 E84.19383
G1 X179.492 Y110.325 E84.24396
G1 X179.143 Y116.958 E84.77417
G1 X179.077 Y117.583 E84.82434
G1 X178.034 Y124.157 E85.35567
G1 X177.903 Y124.77 E85.4057
G1 X176.183 Y131.188 E85.93609
G1 X175.99 Y131.784 E85.9861
G1 X173.619 Y137.963 E86.5144
G1 X173.364 Y138.537 E86.56454
G1 X170.346 Y144.464 E87.09546
G1 X170.031 Y145.008 E87.14564
G1 X166.415 Y150.577 E87.67567
G1 X166.046 Y151.086 E87.72586
G1 X161.846 Y156.273 E88.25862
G1 X161.424 Y156.741 E88.30892
G1 X156.723 Y161.439 E88.83944
G1 X156.258 Y161.858 E88.88941
G1 X151.087 Y166.045 E89.42052
G1 X150.579 Y166.414 E89.47064
G1 X145.029 Y170.019 E89.99893
G1 X144.485 Y170.333 E90.04906
G1 X138.558 Y173.353 E90.58006
G1 X137.985 Y173.608 E90.63012
G1 X131.785 Y175.989 E91.16027
G1 X131.187 Y176.184 E91.21048
G1 X124.75 Y177.909 E91.74244
G1 X124.135 Y178.039 E91.79262
G1 X117.561 Y179.079 E92.32391
G1 X116.936 Y179.145 E92.37408
G1 X110.303 Y179.492 E92.90428
G1 X109.675 Y179.492 E92.95441
G1 X103.042 Y179.143 E93.48461
G1 X102.417 Y179.077 E93.53478
G1 X95.843 Y178.034 E94.06611
G1 X95.231 Y177.904 E94.11605
G1 X88.822 Y176.188 E94.64567
G1 X88.421 Y176.065 E94.67915
G1 X86.422 Y175.377 E94.8479
G1 X86.131 Y175.269 E94.87268
G1 X81.92 Y173.571 E95.23512
G1 X81.441 Y173.353 E95.27713
G1 X75.534 Y170.345 E95.80627
G1 X74.988 Y170.029 E95.85662
G1 X69.403 Y166.4 E96.38829
G1 X68.896 Y166.032 E96.4383
G1 X63.726 Y161.845 E96.96936
G1 X63.258 Y161.423 E97.01966
G1 X58.561 Y156.723 E97.55007
G1 X58.142 Y156.258 E97.60003
G1 X53.955 Y151.087 E98.13115
G1 X53.586 Y150.578 E98.18133
G1 X49.97 Y145.009 E98.71136
G1 X49.655 Y144.464 E98.76161
G1 X46.637 Y138.536 E99.29261
G1 X46.382 Y137.963 E99.34267
G1 X44.003 Y131.762 E99.87284
G1 X43.809 Y131.164 E99.92302
G1 X42.092 Y124.748 E100.4532
G1 X41.962 Y124.135 E100.50322
G1 X40.921 Y117.561 E101.03452
G1 X40.855 Y116.936 E101.08469
G1 X40.508 Y110.303 E101.61489
G1 X40.508 Y109.676 E101.66494
G1 X40.856 Y103.045 E102.19498
G1 X40.889 Y102.658 E102.22598
G1 X41.079 Y101.044 E102.35571
G1 X41.125 Y100.728 E102.3812
G1 X41.978 Y95.767 E102.78302
G1 X42.096 Y95.23 E102.82691
G1 X43.817 Y88.811 E103.3574
G1 X44.01 Y88.216 E103.40733
G1 X46.381 Y82.037 E103.93563
G1 X46.636 Y81.463 E103.98577
G1 X49.654 Y75.536 E104.51669
G1 X49.969 Y74.992 E104.56687
G1 X53.585 Y69.423 E105.0969
G1 X53.954 Y68.914 E105.14708
G1 X58.154 Y63.727 E105.67985
G1 X58.576 Y63.259 E105.73015
G0 F6000 X59.141 Y63.825
G1 F1200 X63.842 Y59.127 E106.26067
G1 X64.246 Y58.764 E106.30403
G1 X69.417 Y54.577 E106.83514
G1 X69.856 Y54.257 E106.87851
G1 X75.406 Y50.652 E107.40679
G1 X75.878 Y50.38 E107.45027
G1 X81.805 Y47.36 E107.98127
G1 X82.302 Y47.139 E108.02469
G1 X88.502 Y44.758 E108.55484
G1 X89.02 Y44.589 E108.59833
G1 X95.457 Y42.864 E109.13029
G1 X95.99 Y42.751 E109.17378
G1 X102.564 Y41.711 E109.70508
G1 X103.105 Y41.654 E109.7485
G1 X109.738 Y41.307 E110.2787
G1 X110.283 Y41.307 E110.3222
G1 X116.916 Y41.656 E110.85241
G1 X117.458 Y41.713 E110.89591
G1 X124.032 Y42.756 E111.42724
G1 X124.563 Y42.869 E111.47058
G1 X130.981 Y44.589 E112.00097
G1 X131.498 Y44.757 E112.04436
G1 X137.677 Y47.128 E112.57266
G1 X138.174 Y47.349 E112.61608
G1 X144.101 Y50.367 E113.147
G1 X144.574 Y50.641 E113.19064
G1 X150.161 Y54.271 E113.72248
G1 X150.601 Y54.59 E113.76586
G1 X155.77 Y58.776 E114.29681
G1 X156.175 Y59.141 E114.34033
G1 X160.873 Y63.842 E114.87085
G1 X161.236 Y64.246 E114.9142
G1 X165.423 Y69.417 E115.44532
G1 X165.743 Y69.856 E115.48869
G1 X169.348 Y75.406 E116.01697
G1 X169.62 Y75.878 E116.06045
G1 X172.64 Y81.805 E116.59145
G1 X172.861 Y82.302 E116.63487
G1 X175.242 Y88.502 E117.16502
G1 X175.411 Y89.02 E117.20851
G1 X177.134 Y95.449 E117.73981
G1 X177.236 Y95.914 E117.77781
G1 X178.087 Y100.864 E118.17874
G1 X178.126 Y101.138 E118.20083
G1 X178.317 Y102.764 E118.33152
G1 X178.346 Y103.1 E118.35844
G1 X178.693 Y109.739 E118.88912
G1 X178.693 Y110.283 E118.93254
G1 X178.344 Y116.916 E119.46275
G1 X178.287 Y117.458 E119.50625
G1 X177.244 Y124.032 E120.03758
G1 X177.131 Y124.563 E120.08092
G1 X175.411 Y130.981 E120.61131
G1 X175.243 Y131.498 E120.6547
G1 X172.872 Y137.677 E121.183
G1 X172.651 Y138.174 E121.22642
G1 X169.633 Y144.101 E121.75734
G1 X169.36 Y144.573 E121.80087
G1 X165.744 Y150.142 E122.3309
G1 X165.424 Y150.582 E122.37433
G1 X161.224 Y155.769 E122.90709
G1 X160.859 Y156.175 E122.95067
G1 X156.158 Y160.873 E123.48119
G1 X155.754 Y161.236 E123.52455
G1 X150.583 Y165.423 E124.05566
G1 X150.144 Y165.743 E124.09903
G1 X144.594 Y169.348 E124.62731
G1 X144.122 Y169.62 E124.6708
G1 X138.195 Y172.64 E125.20179
G1 X137.698 Y172.861 E125.24521
G1 X131.498 Y175.242 E125.77536
G1 X130.98 Y175.411 E125.81885
G1 X124.543 Y177.136 E126.35081
G1 X124.01 Y177.249 E126.3943
G1 X117.436 Y178.289 E126.9256
G1 X116.895 Y178.346 E126.96902
G1 X110.262 Y178.693 E127.49922
G1 X109.717 Y178.693 E127.54272
G1 X103.084 Y178.344 E128.07293
G1 X102.542 Y178.287 E128.11643
G1 X95.968 Y177.244 E128.64776
G1 X95.438 Y177.131 E128.69102
G1 X89.029 Y175.415 E129.22063
G1 X88.682 Y175.309 E129.2496
G1 X86.683 Y174.621 E129.41835
G1 X86.43 Y174.527 E129.4399
G1 X82.219 Y172.829 E129.80234
G1 X81.804 Y172.64 E129.83874
G1 X75.897 Y169.632 E130.36787
G1 X75.424 Y169.358 E130.41151
G1 X69.839 Y165.729 E130.94318
G1 X69.399 Y165.41 E130.98656
G1 X64.229 Y161.223 E131.51761
G1 X63.824 Y160.858 E131.56114
G1 X59.127 Y156.158 E132.09154
G1 X58.764 Y155.754 E132.1349
G1 X54.577 Y150.583 E132.66601
G1 X54.257 Y150.143 E132.70944
G1 X50.641 Y144.574 E133.23948
G1 X50.368 Y144.101 E133.28307
G1 X47.35 Y138.173 E133.81406
