;FLAVOR:Marlin
;TIME:14943
;Filament used: 51.395m
;Layer height: 0.48
;MINX:30.551
;MINY:7.564
;MINZ:0.24
;MAXX:187.474
;MAXY:214.411
;MAXZ:63.6
;Generated with Cura_SteamEngine 4.13.0
M140 S75
M105
M190 S75
M104 S190
M105
M109 S190
M82 ;absolute extrusion mode
; Script based on an original created by tjjfvi (https://github.com/tjjfvi)
; An up-to-date version of the tjjfvi's original script can be found
; here:  https://csi.t6.fyi/
; Note - This script will only work in Cura V4.2 and above!
; --- Global Settings
; layer_height = 0.48
; smooth_spiralized_contours = True
; magic_mesh_surface_mode = normal
; machine_extruder_count = 1
; --- Single Extruder Settings
; speed_z_hop = 5
; retraction_amount = 10
; retraction_hop = 0.2
; retraction_hop_enabled = False
; retraction_enable = True
; retraction_speed = 30
; retraction_retract_speed = 30
; retraction_prime_speed = 30
; speed_travel = 150.0

; Ender 3 Custom Start G-code
G92 E0 ; Reset Extruder
G28 ; Home all axes
G1 Z2.0 F3000 ; Move Z Axis up little to prevent scratching of Heat Bed
G1 X0.1 Y20 Z0.3 F5000.0 ; Move to start position
G1 X0.1 Y200.0 Z0.3 F1500.0 E15 ; Draw the first line
G1 X0.4 Y200.0 Z0.3 F5000.0 ; Move to side a little
G1 X0.4 Y20 Z0.3 F1500.0 E30 ; Draw the second line
G92 E0 ; Reset Extruder
G1 Z2.0 F3000 ; Move Z Axis up little to prevent scratching of Heat Bed
G1 X5 Y20 Z0.3 F5000.0 ; Move over to prevent blob squish
G92 E0
G92 E0
G1 F1800 E-10
;LAYER_COUNT:133
;LAYER:0
M107
G0 F6000 X35.119 Y48.054 Z0.24
;TYPE:SKIRT
G1 F1800 E0
G1 F1200 X71.04 Y12.133 E4.05507
G1 X71.858 Y11.372 E4.14426
G1 X72.728 Y10.672 E4.23339
G1 X73.645 Y10.035 E4.32252
G1 X74.607 Y9.466 E4.41174
G1 X75.606 Y8.967 E4.50088
G1 X76.638 Y8.541 E4.59
G1 X77.699 Y8.189 E4.67923
G1 X78.781 Y7.915 E4.76833
G1 X79.881 Y7.719 E4.85752
G1 X80.992 Y7.601 E4.9467
G1 X82.108 Y7.564 E5.03583
G1 X83.224 Y7.607 E5.12498
G1 X84.334 Y7.729 E5.21412
G1 X85.433 Y7.931 E5.30332
G1 X86.514 Y8.21 E5.39244
G1 X87.573 Y8.566 E5.48162
G1 X88.603 Y8.998 E5.57078
G1 X89.6 Y9.501 E5.65992
G1 X90.559 Y10.075 E5.74913
G1 X91.473 Y10.716 E5.83825
G1 X92.286 Y11.373 E5.92168
G1 X95.556 Y14.206 E6.26705
G1 X98.246 Y15.935 E6.5223
G1 X101.163 Y17.267 E6.77828
G1 X104.237 Y18.17 E7.03403
G1 X107.413 Y18.626 E7.29015
G1 X110.611 Y18.626 E7.54543
G1 X113.789 Y18.17 E7.80171
G1 X116.86 Y17.268 E8.0572
G1 X119.779 Y15.935 E8.31336
G1 X122.474 Y14.203 E8.56908
G1 X125.737 Y11.375 E8.91376
G1 X126.607 Y10.674 E9.00294
G1 X127.524 Y10.037 E9.09207
G1 X128.485 Y9.468 E9.18122
G1 X129.484 Y8.968 E9.27039
G1 X130.517 Y8.542 E9.35959
G1 X131.577 Y8.19 E9.44875
G1 X132.659 Y7.916 E9.53784
G1 X133.759 Y7.719 E9.62705
G1 X134.87 Y7.602 E9.71622
G1 X135.986 Y7.564 E9.80536
G1 X137.102 Y7.606 E9.8945
G1 X138.212 Y7.728 E9.98364
G1 X139.311 Y7.93 E10.07284
G1 X140.393 Y8.209 E10.16203
G1 X141.451 Y8.565 E10.25114
G1 X142.482 Y8.996 E10.34034
G1 X143.479 Y9.499 E10.42948
G1 X144.437 Y10.073 E10.51863
G1 X145.352 Y10.714 E10.60781
G1 X146.219 Y11.418 E10.69696
G1 X146.984 Y12.133 E10.78054
G1 X182.905 Y48.054 E14.83562
G1 X183.666 Y48.872 E14.9248
G1 X184.366 Y49.742 E15.01393
G1 X185.003 Y50.659 E15.10306
G1 X185.572 Y51.621 E15.19228
G1 X186.071 Y52.62 E15.28142
G1 X186.497 Y53.652 E15.37054
G1 X186.849 Y54.713 E15.45977
G1 X187.123 Y55.795 E15.54887
G1 X187.319 Y56.895 E15.63806
G1 X187.437 Y58.006 E15.72724
G1 X187.474 Y59.122 E15.81638
G1 X187.431 Y60.238 E15.90553
G1 X187.309 Y61.348 E15.99466
G1 X187.107 Y62.447 E16.08386
G1 X186.828 Y63.528 E16.17298
G1 X186.472 Y64.587 E16.26216
G1 X186.04 Y65.617 E16.35132
G1 X185.537 Y66.614 E16.44046
G1 X184.963 Y67.573 E16.52967
G1 X184.322 Y68.487 E16.61879
G1 X183.769 Y69.179 E16.6895
G1 X181.913 Y71.366 E16.91847
G1 X181.095 Y72.729 E17.04536
G1 X180.509 Y74.204 E17.17205
G1 X180.036 Y76.38 E17.3498
G1 X168.532 Y162.422 E24.27916
G1 X168.355 Y163.475 E24.3644
G1 X167.139 Y169.433 E24.8498
G1 X166.877 Y170.518 E24.9389
G1 X166.57 Y171.49 E25.02026
G1 X164.551 Y177.229 E25.5059
G1 X164.143 Y178.269 E25.59507
G1 X163.706 Y179.19 E25.67645
G1 X160.922 Y184.6 E26.16212
G1 X160.376 Y185.574 E26.25126
G1 X159.818 Y186.427 E26.33262
G1 X156.324 Y191.403 E26.81797
G1 X155.65 Y192.293 E26.90708
G1 X154.981 Y193.062 E26.98845
G1 X150.837 Y197.518 E27.47419
G1 X150.047 Y198.308 E27.56337
G1 X149.28 Y198.977 E27.64461
G1 X144.581 Y202.814 E28.12887
G1 X143.665 Y203.508 E28.22061
G1 X142.81 Y204.068 E28.30219
G1 X137.634 Y207.225 E28.78615
G1 X136.66 Y207.772 E28.87532
G1 X135.742 Y208.208 E28.95645
G1 X130.165 Y210.638 E29.44205
G1 X129.126 Y211.048 E29.53121
G1 X128.152 Y211.356 E29.61275
G1 X122.298 Y213 E30.09812
G1 X121.212 Y213.263 E30.18732
G1 X120.208 Y213.435 E30.26863
G1 X114.179 Y214.265 E30.75443
G1 X113.067 Y214.378 E30.84365
G1 X112.051 Y214.411 E30.9248
G1 X105.973 Y214.411 E31.40997
G1 X104.857 Y214.371 E31.49911
G1 X103.845 Y214.265 E31.58033
G1 X97.817 Y213.435 E32.06605
G1 X96.717 Y213.243 E32.15519
G1 X95.728 Y213 E32.23648
G1 X89.873 Y211.356 E32.72193
G1 X88.809 Y211.016 E32.81109
G1 X87.859 Y210.638 E32.89271
G1 X82.282 Y208.208 E33.37831
G1 X81.274 Y207.726 E33.4675
G1 X80.391 Y207.226 E33.5485
G1 X75.216 Y204.07 E34.03235
G1 X73.934 Y203.198 E34.15612
G1 X73.424 Y202.799 E34.2078
G1 X68.74 Y198.973 E34.69058
G1 X67.901 Y198.236 E34.77972
G1 X67.189 Y197.518 E34.86044
G1 X63.046 Y193.066 E35.34589
G1 X62.315 Y192.222 E35.43502
G1 X61.696 Y191.399 E35.51722
G1 X58.204 Y186.422 E36.00254
G1 X57.595 Y185.485 E36.09175
G1 X57.103 Y184.6 E36.17258
G1 X54.319 Y179.19 E36.65825
G1 X53.844 Y178.179 E36.74742
G1 X53.474 Y177.229 E36.8288
G1 X51.455 Y171.49 E37.31443
G1 X51.122 Y170.424 E37.40358
G1 X50.887 Y169.435 E37.48472
G1 X49.67 Y163.477 E37.97014
G1 X49.492 Y162.422 E38.05554
G1 X37.989 Y76.385 E44.9845
G1 X37.513 Y74.202 E45.16285
G1 X36.926 Y72.722 E45.28994
G1 X36.113 Y71.368 E45.41601
G1 X34.257 Y69.181 E45.64498
G1 X33.565 Y68.304 E45.73415
G1 X32.938 Y67.38 E45.82329
G1 X32.378 Y66.413 E45.91249
G1 X31.889 Y65.409 E46.00163
G1 X31.473 Y64.372 E46.09082
G1 X31.133 Y63.309 E46.17991
G1 X30.869 Y62.223 E46.26913
G1 X30.684 Y61.122 E46.35824
G1 X30.577 Y60.01 E46.44742
G1 X30.551 Y58.893 E46.53661
G1 X30.605 Y57.778 E46.62572
G1 X30.738 Y56.669 E46.71487
G1 X30.951 Y55.572 E46.80408
G1 X31.241 Y54.493 E46.89326
G1 X31.608 Y53.438 E46.98243
G1 X32.049 Y52.412 E47.07157
G1 X32.563 Y51.42 E47.16076
G1 X33.146 Y50.468 E47.24987
G1 X33.796 Y49.559 E47.33907
G1 X34.509 Y48.7 E47.42818
G1 X35.119 Y48.054 E47.49911
G0 F6000 X35.685 Y48.62
G1 F1200 X71.606 Y12.699 E51.55418
G1 X72.403 Y11.958 E51.64105
G1 X73.252 Y11.278 E51.72788
G1 X74.149 Y10.663 E51.81469
G1 X75.089 Y10.115 E51.90155
G1 X76.066 Y9.637 E51.98837
G1 X77.076 Y9.232 E52.07523
G1 X78.113 Y8.903 E52.16208
G1 X79.171 Y8.651 E52.24889
G1 X80.245 Y8.477 E52.33574
G1 X81.329 Y8.383 E52.4226
G1 X82.417 Y8.368 E52.50945
G1 X83.503 Y8.433 E52.5963
G1 X84.581 Y8.578 E52.68312
G1 X85.646 Y8.802 E52.77
G1 X86.691 Y9.104 E52.85683
G1 X87.712 Y9.481 E52.94371
G1 X88.702 Y9.932 E53.03055
G1 X89.656 Y10.455 E53.11739
G1 X90.569 Y11.047 E53.20425
G1 X91.762 Y11.978 E53.32505
G1 X95.07 Y14.844 E53.67443
G1 X97.868 Y16.643 E53.93996
G1 X100.883 Y18.019 E54.20451
G1 X104.064 Y18.954 E54.46917
G1 X107.354 Y19.426 E54.73448
G1 X110.67 Y19.426 E54.99918
G1 X113.961 Y18.954 E55.26457
G1 X117.143 Y18.019 E55.52931
G1 X120.157 Y16.643 E55.79378
G1 X122.955 Y14.844 E56.05932
G1 X126.261 Y11.979 E56.40852
G1 X127.108 Y11.297 E56.49533
G1 X128.004 Y10.68 E56.58217
G1 X128.943 Y10.13 E56.66903
G1 X129.919 Y9.65 E56.75585
G1 X130.928 Y9.243 E56.8427
G1 X131.964 Y8.912 E56.92952
G1 X133.022 Y8.657 E57.01639
G1 X134.096 Y8.481 E57.10327
G1 X135.179 Y8.384 E57.19006
G1 X136.267 Y8.367 E57.27692
G1 X137.353 Y8.43 E57.36376
G1 X138.432 Y8.573 E57.45064
G1 X139.497 Y8.795 E57.53748
G1 X140.543 Y9.094 E57.62432
G1 X141.564 Y9.469 E57.71114
G1 X142.555 Y9.918 E57.79799
G1 X143.51 Y10.439 E57.88483
G1 X144.424 Y11.028 E57.97163
G1 X145.293 Y11.683 E58.05849
G1 X146.418 Y12.699 E58.17949
G1 X182.339 Y48.62 E62.23457
G1 X183.08 Y49.417 E62.32144
G1 X183.76 Y50.266 E62.40827
G1 X184.375 Y51.163 E62.49508
G1 X184.923 Y52.103 E62.58194
G1 X185.401 Y53.08 E62.66876
G1 X185.806 Y54.09 E62.75562
G1 X186.135 Y55.127 E62.84246
G1 X186.387 Y56.185 E62.92928
G1 X186.561 Y57.259 E63.01613
G1 X186.655 Y58.343 E63.10298
G1 X186.67 Y59.431 E63.18984
G1 X186.605 Y60.517 E63.27669
G1 X186.46 Y61.595 E63.36351
G1 X186.236 Y62.66 E63.45038
G1 X185.934 Y63.705 E63.53721
G1 X185.557 Y64.726 E63.62409
G1 X185.106 Y65.716 E63.71093
G1 X184.583 Y66.67 E63.79778
G1 X183.991 Y67.583 E63.88464
G1 X183.159 Y68.661 E63.99334
G1 X181.261 Y70.898 E64.22752
G1 X180.376 Y72.372 E64.36476
G1 X179.743 Y73.967 E64.50174
G1 X179.246 Y76.248 E64.68809
G1 X167.739 Y162.316 E71.61954
G1 X167.571 Y163.315 E71.7004
G1 X166.355 Y169.273 E72.1858
G1 X166.098 Y170.33 E72.27263
G1 X165.815 Y171.225 E72.34756
G1 X163.796 Y176.964 E72.8332
G1 X163.398 Y177.976 E72.92
G1 X162.995 Y178.824 E72.99495
G1 X160.211 Y184.234 E73.48062
G1 X159.678 Y185.182 E73.56744
G1 X159.163 Y185.967 E73.64238
G1 X155.669 Y190.943 E74.12773
G1 X155.012 Y191.81 E74.21456
G1 X154.395 Y192.517 E74.28947
G1 X150.251 Y196.973 E74.77521
G1 X149.481 Y197.742 E74.86208
G1 X148.774 Y198.358 E74.93693
G1 X144.075 Y202.195 E75.42119
G1 X143.204 Y202.854 E75.50837
G1 X142.394 Y203.385 E75.58568
G1 X137.218 Y206.542 E76.06964
G1 X136.269 Y207.074 E76.15649
G1 X135.423 Y207.475 E76.23122
G1 X129.846 Y209.905 E76.71683
G1 X128.833 Y210.303 E76.8037
G1 X127.936 Y210.586 E76.87879
G1 X122.082 Y212.23 E77.36416
G1 X121.024 Y212.485 E77.45103
G1 X120.098 Y212.643 E77.52601
G1 X114.069 Y213.473 E78.01181
G1 X112.987 Y213.581 E78.09861
G1 X112.051 Y213.611 E78.17337
G1 X105.973 Y213.611 E78.65854
G1 X104.886 Y213.571 E78.74537
G1 X103.954 Y213.473 E78.82017
G1 X97.926 Y212.643 E79.30589
G1 X96.855 Y212.455 E79.39269
G1 X95.944 Y212.23 E79.4676
G1 X90.089 Y210.586 E79.95304
G1 X89.053 Y210.254 E80.03988
G1 X88.178 Y209.905 E80.11508
G1 X82.601 Y207.475 E80.60069
G1 X81.62 Y207.004 E80.68755
G1 X80.807 Y206.543 E80.76216
G1 X75.632 Y203.387 E81.246
G1 X74.416 Y202.559 E81.36344
G1 X73.93 Y202.179 E81.41268
G1 X69.246 Y198.353 E81.89546
G1 X68.43 Y197.634 E81.98227
G1 X67.775 Y196.973 E82.05656
G1 X63.632 Y192.521 E82.54201
G1 X62.92 Y191.698 E82.62888
G1 X62.351 Y190.939 E82.7046
G1 X58.859 Y185.962 E83.18992
G1 X58.267 Y185.05 E83.27671
G1 X57.814 Y184.234 E83.35121
G1 X55.03 Y178.824 E83.83689
G1 X54.568 Y177.839 E83.92373
G1 X54.229 Y176.964 E83.99864
G1 X52.21 Y171.225 E84.48427
G1 X51.887 Y170.186 E84.57112
G1 X51.67 Y169.275 E84.64588
G1 X50.453 Y163.317 E85.13129
G1 X50.285 Y162.316 E85.21231
G1 X38.777 Y76.242 E92.14425
G1 X38.282 Y73.969 E92.32994
G1 X37.646 Y72.367 E92.46753
G1 X36.766 Y70.9 E92.60409
G1 X34.867 Y68.663 E92.83832
G1 X34.194 Y67.808 E92.92518
G1 X33.586 Y66.906 E93.01201
G1 X33.045 Y65.962 E93.09886
G1 X32.575 Y64.981 E93.18569
G1 X32.179 Y63.968 E93.27251
G1 X31.858 Y62.928 E93.35939
G1 X31.614 Y61.868 E93.44622
G1 X31.449 Y60.793 E93.53303
G1 X31.363 Y59.708 E93.61992
G1 X31.357 Y58.62 E93.70677
G1 X31.431 Y57.535 E93.79358
G1 X31.585 Y56.458 E93.88042
G1 X31.817 Y55.395 E93.96727
G1 X32.127 Y54.352 E94.05413
G1 X32.513 Y53.335 E94.14096
G1 X32.972 Y52.349 E94.22778
G1 X33.502 Y51.399 E94.31461
G1 X34.101 Y50.49 E94.40151
G1 X34.765 Y49.629 E94.4883
G1 X35.685 Y48.62 E94.5973
G0 F6000 X36.251 Y49.186
G1 F1200 X72.172 Y13.265 E98.65237
G1 X72.947 Y12.545 E98.73682
G1 X73.775 Y11.886 E98.82129
G1 X74.651 Y11.292 E98.90578
G1 X75.569 Y10.766 E98.99023
G1 X76.524 Y10.31 E99.07471
G1 X77.51 Y9.928 E99.15911
G1 X78.523 Y9.621 E99.24361
G1 X79.556 Y9.392 E99.32807
G1 X80.603 Y9.241 E99.41251
G1 X81.659 Y9.17 E99.49699
G1 X82.717 Y9.179 E99.58145
G1 X83.772 Y9.268 E99.66597
G1 X84.816 Y9.436 E99.75037
G1 X85.845 Y9.682 E99.83483
G1 X86.853 Y10.006 E99.91935
G1 X87.833 Y10.405 E100.00381
G1 X88.78 Y10.876 E100.08824
G1 X89.689 Y11.418 E100.17272
G1 X90.554 Y12.027 E100.25716
G1 X91.238 Y12.583 E100.32752
G1 X94.588 Y15.485 E100.68132
G1 X97.483 Y17.346 E100.95604
G1 X100.603 Y18.771 E101.22984
G1 X103.891 Y19.737 E101.50339
G1 X107.297 Y20.226 E101.77806
G1 X110.727 Y20.226 E102.05186
G1 X114.128 Y19.738 E102.32612
G1 X117.426 Y18.769 E102.60051
G1 X120.542 Y17.346 E102.87395
G1 X123.437 Y15.486 E103.14863
G1 X126.785 Y12.584 E103.5023
G1 X127.61 Y11.922 E103.58674
G1 X128.483 Y11.324 E103.67121
G1 X129.398 Y10.793 E103.75565
G1 X130.351 Y10.334 E103.84009
G1 X131.336 Y9.947 E103.92457
G1 X132.348 Y9.636 E104.00908
G1 X133.38 Y9.403 E104.09353
G1 X134.426 Y9.247 E104.17795
G1 X135.482 Y9.172 E104.26246
G1 X136.54 Y9.176 E104.34691
G1 X137.595 Y9.261 E104.4314
G1 X138.64 Y9.424 E104.51583
G1 X139.67 Y9.666 E104.60028
G1 X140.679 Y9.986 E104.68478
G1 X141.661 Y10.38 E104.76924
G1 X142.61 Y10.848 E104.85371
G1 X143.521 Y11.386 E104.93816
G1 X144.389 Y11.991 E105.02262
G1 X145.209 Y12.66 E105.10709
G1 X145.852 Y13.265 E105.17757
G1 X181.773 Y49.186 E109.23264
G1 X182.493 Y49.961 E109.31708
G1 X183.152 Y50.789 E109.40156
G1 X183.746 Y51.665 E109.48604
G1 X184.272 Y52.583 E109.5705
G1 X184.728 Y53.538 E109.65497
G1 X185.11 Y54.524 E109.73938
G1 X185.417 Y55.537 E109.82388
G1 X185.646 Y56.57 E109.90834
G1 X185.797 Y57.617 E109.99278
G1 X185.868 Y58.673 E110.07726
G1 X185.859 Y59.731 E110.16172
G1 X185.77 Y60.786 E110.24623
G1 X185.602 Y61.83 E110.33064
G1 X185.356 Y62.859 E110.41509
G1 X185.032 Y63.867 E110.49961
G1 X184.633 Y64.847 E110.58408
G1 X184.162 Y65.794 E110.6685
G1 X183.62 Y66.703 E110.75298
G1 X183.011 Y67.568 E110.83743
G1 X182.549 Y68.143 E110.89631
G1 X180.609 Y70.429 E111.13564
G1 X179.658 Y72.012 E111.28305
G1 X178.974 Y73.738 E111.43125
G1 X178.46 Y76.095 E111.62382
G1 X166.947 Y162.21 E118.55905
G1 X166.787 Y163.155 E118.63556
G1 X165.571 Y169.113 E119.12096
G1 X165.321 Y170.141 E119.20541
G1 X165.061 Y170.959 E119.27392
G1 X163.042 Y176.698 E119.75956
G1 X162.653 Y177.682 E119.84402
G1 X162.283 Y178.458 E119.91264
G1 X159.499 Y183.868 E120.39832
G1 X158.98 Y184.79 E120.48278
G1 X158.509 Y185.507 E120.55125
G1 X155.015 Y190.483 E121.0366
G1 X154.374 Y191.326 E121.12114
G1 X153.809 Y191.972 E121.18964
G1 X149.665 Y196.428 E121.67538
G1 X148.916 Y197.175 E121.75982
G1 X148.268 Y197.738 E121.82835
G1 X143.569 Y201.575 E122.31261
G1 X142.744 Y202.199 E122.39518
G1 X141.977 Y202.702 E122.46839
G1 X136.801 Y205.859 E122.95235
G1 X135.878 Y206.376 E123.0368
G1 X135.103 Y206.742 E123.10522
G1 X129.526 Y209.172 E123.59082
G1 X128.541 Y209.557 E123.67524
G1 X127.719 Y209.816 E123.74404
G1 X121.865 Y211.46 E124.22941
G1 X120.836 Y211.707 E124.31388
G1 X119.989 Y211.85 E124.38245
G1 X113.96 Y212.68 E124.86825
G1 X112.907 Y212.785 E124.95272
G1 X112.051 Y212.811 E125.02108
G1 X105.973 Y212.811 E125.50625
G1 X104.916 Y212.771 E125.59069
G1 X104.063 Y212.68 E125.65916
G1 X98.035 Y211.85 E126.14488
G1 X96.993 Y211.666 E126.22935
G1 X96.16 Y211.46 E126.29784
G1 X90.305 Y209.816 E126.78329
G1 X89.298 Y209.491 E126.86776
G1 X88.498 Y209.172 E126.9365
G1 X82.921 Y206.742 E127.42211
G1 X81.967 Y206.283 E127.50662
G1 X81.224 Y205.86 E127.57486
G1 X76.049 Y202.704 E128.05871
G1 X74.898 Y201.921 E128.16984
G1 X74.436 Y201.56 E128.21664
G1 X69.752 Y197.734 E128.69941
G1 X68.959 Y197.034 E128.78385
G1 X68.36 Y196.428 E128.85187
G1 X64.217 Y191.976 E129.33732
G1 X63.526 Y191.175 E129.42176
G1 X63.006 Y190.48 E129.49105
G1 X59.514 Y185.503 E129.97637
G1 X58.939 Y184.614 E130.06088
G1 X58.526 Y183.868 E130.12895
G1 X55.742 Y178.458 E130.61462
G1 X55.293 Y177.5 E130.69908
G1 X54.983 Y176.698 E130.76771
G1 X52.964 Y170.959 E131.25335
G1 X52.651 Y169.948 E131.33783
G1 X52.454 Y169.115 E131.40616
G1 X51.237 Y163.157 E131.89157
G1 X51.077 Y162.21 E131.96824
G1 X39.565 Y76.101 E138.90298
G1 X39.049 Y73.734 E139.09637
G1 X38.364 Y72.007 E139.24467
G1 X37.418 Y70.431 E139.3914
G1 X35.477 Y68.145 E139.63078
G1 X34.823 Y67.313 E139.71526
G1 X34.234 Y66.434 E139.79972
G1 X33.713 Y65.513 E139.88418
