;FLAVOR:Marlin
;TIME:3148
;Filament used: 9.94713m
;Layer height: 0.48
;MINX:64.373
;MINY:93.1
;MINZ:0.24
;MAXX:157.486
;MAXY:157.532
;MAXZ:18
;Generated with Cura_SteamEngine 4.13.0
M140 S75
M105
M190 S75
M104 S190
M105
M109 S190
M82 ;absolute extrusion mode
; Script based on an original created by tjjfvi (https://github.com/tjjfvi)
; An up-to-date version of the tjjfvi's original script can be found
; here:  https://csi.t6.fyi/
; Note - This script will only work in Cura V4.2 and above!
; --- Global Settings
; layer_height = 0.48
; smooth_spiralized_contours = True
; magic_mesh_surface_mode = normal
; machine_extruder_count = 1
; --- Single Extruder Settings
; speed_z_hop = 5
; retraction_amount = 10
; retraction_hop = 0.2
; retraction_hop_enabled = False
; retraction_enable = True
; retraction_speed = 30
; retraction_retract_speed = 30
; retraction_prime_speed = 30
; speed_travel = 150.0

; Ender 3 Custom Start G-code
G92 E0 ; Reset Extruder
G28 ; Home all axes
G1 Z2.0 F3000 ; Move Z Axis up little to prevent scratching of Heat Bed
G1 X0.1 Y20 Z0.3 F5000.0 ; Move to start position
G1 X0.1 Y200.0 Z0.3 F1500.0 E15 ; Draw the first line
G1 X0.4 Y200.0 Z0.3 F5000.0 ; Move to side a little
G1 X0.4 Y20 Z0.3 F1500.0 E30 ; Draw the second line
G92 E0 ; Reset Extruder
G1 Z2.0 F3000 ; Move Z Axis up little to prevent scratching of Heat Bed
G1 X5 Y20 Z0.3 F5000.0 ; Move over to prevent blob squish
G92 E0
G92 E0
G1 F1800 E-10
;LAYER_COUNT:38
;LAYER:0
M107
G0 F6000 X66.192 Y93.936 Z0.24
;TYPE:SKIRT
G1 F1800 E0
G1 F1200 X66.695 Y93.622 E0.04733
G1 X67.235 Y93.377 E0.09467
G1 X67.804 Y93.208 E0.14205
G1 X68.389 Y93.117 E0.18931
G1 X68.773 Y93.1 E0.21999
G1 X93.773 Y93.1 E2.2156
G1 X94.365 Y93.14 E2.26296
G1 X94.945 Y93.259 E2.31022
G1 X95.505 Y93.455 E2.35758
G1 X95.639 Y93.524 E2.36962
G1 X95.962 Y93.377 E2.39794
G1 X96.531 Y93.208 E2.44532
G1 X97.116 Y93.117 E2.49258
G1 X97.5 Y93.1 E2.52327
G1 X122.5 Y93.1 E4.51887
G1 X123.092 Y93.14 E4.56624
G1 X123.672 Y93.259 E4.6135
G1 X124.232 Y93.455 E4.66086
G1 X124.76 Y93.725 E4.7082
G1 X125.247 Y94.063 E4.75552
G1 X125.297 Y94.109 E4.76094
G1 X125.505 Y93.936 E4.78254
G1 X126.008 Y93.622 E4.82987
G1 X126.548 Y93.377 E4.87721
G1 X127.117 Y93.208 E4.92459
G1 X127.702 Y93.117 E4.97185
G1 X128.086 Y93.1 E5.00253
G1 X153.086 Y93.1 E6.99814
G1 X153.678 Y93.14 E7.0455
G1 X154.258 Y93.259 E7.09276
G1 X154.818 Y93.455 E7.14012
G1 X155.346 Y93.725 E7.18746
G1 X155.833 Y94.063 E7.23478
G1 X156.27 Y94.464 E7.28212
G1 X156.65 Y94.919 E7.32945
G1 X156.964 Y95.422 E7.37678
G1 X157.209 Y95.962 E7.42411
G1 X157.378 Y96.531 E7.47149
G1 X157.469 Y97.116 E7.51875
G1 X157.486 Y97.5 E7.54944
G1 X157.486 Y122.5 E9.54504
G1 X157.446 Y123.092 E9.59241
G1 X157.327 Y123.672 E9.63967
G1 X157.131 Y124.232 E9.68703
G1 X156.861 Y124.76 E9.73437
G1 X156.523 Y125.247 E9.78169
G1 X156.122 Y125.684 E9.82903
G1 X155.877 Y125.889 E9.85453
G1 X155.98 Y126.054 E9.87006
G1 X156.225 Y126.594 E9.91739
G1 X156.394 Y127.163 E9.96477
G1 X156.485 Y127.748 E10.01203
G1 X156.502 Y128.132 E10.04272
G1 X156.502 Y153.132 E12.03832
G1 X156.462 Y153.724 E12.08569
G1 X156.343 Y154.304 E12.13295
G1 X156.147 Y154.864 E12.18031
G1 X155.877 Y155.392 E12.22765
G1 X155.539 Y155.879 E12.27497
G1 X155.138 Y156.316 E12.32231
G1 X154.683 Y156.696 E12.36963
G1 X154.18 Y157.01 E12.41697
G1 X153.64 Y157.255 E12.4643
G1 X153.071 Y157.424 E12.51168
G1 X152.486 Y157.515 E12.55894
G1 X152.102 Y157.532 E12.58962
G1 X127.102 Y157.532 E14.58523
G1 X126.51 Y157.492 E14.63259
G1 X125.93 Y157.373 E14.67986
G1 X125.37 Y157.177 E14.72722
G1 X124.842 Y156.907 E14.77456
G1 X124.355 Y156.569 E14.82188
G1 X123.918 Y156.168 E14.86922
G1 X123.538 Y155.713 E14.91654
G1 X123.224 Y155.21 E14.96387
G1 X122.979 Y154.67 E15.01121
G1 X122.81 Y154.101 E15.05859
G1 X122.719 Y153.516 E15.10585
G1 X122.702 Y153.132 E15.13653
G1 X122.702 Y128.132 E17.13214
G1 X122.742 Y127.54 E17.1795
G1 X122.861 Y126.96 E17.22676
G1 X122.884 Y126.883 E17.23318
G1 X122.5 Y126.9 E17.26386
G1 X97.5 Y126.9 E19.25947
G1 X96.908 Y126.86 E19.30683
G1 X96.328 Y126.741 E19.3541
G1 X95.768 Y126.545 E19.40146
G1 X95.634 Y126.476 E19.41349
G1 X95.311 Y126.623 E19.44182
G1 X94.742 Y126.792 E19.4892
G1 X94.157 Y126.883 E19.53646
G1 X93.773 Y126.9 E19.56714
G1 X68.773 Y126.9 E21.56275
G1 X68.181 Y126.86 E21.61011
G1 X67.601 Y126.741 E21.65737
G1 X67.041 Y126.545 E21.70473
G1 X66.513 Y126.275 E21.75207
G1 X66.026 Y125.937 E21.79939
G1 X65.589 Y125.536 E21.84674
G1 X65.209 Y125.081 E21.89406
G1 X64.895 Y124.578 E21.94139
G1 X64.65 Y124.038 E21.98872
G1 X64.481 Y123.469 E22.0361
G1 X64.39 Y122.884 E22.08336
G1 X64.373 Y122.5 E22.11405
G1 X64.373 Y97.5 E24.10965
G1 X64.413 Y96.908 E24.15702
G1 X64.532 Y96.328 E24.20428
G1 X64.728 Y95.768 E24.25164
G1 X64.998 Y95.24 E24.29898
G1 X65.336 Y94.753 E24.3463
G1 X65.737 Y94.316 E24.39364
G1 X66.192 Y93.936 E24.44096
G0 F6000 X66.52 Y94.692
G1 F1200 X66.962 Y94.389 E24.48374
G1 X67.445 Y94.154 E24.52662
G1 X67.956 Y93.994 E24.56936
G1 X68.486 Y93.911 E24.61218
G1 X68.773 Y93.9 E24.63511
G1 X93.773 Y93.9 E26.63072
G1 X94.308 Y93.94 E26.67354
G1 X94.831 Y94.059 E26.71636
G1 X95.33 Y94.254 E26.75912
G1 X95.632 Y94.428 E26.78694
G1 X95.689 Y94.389 E26.79246
G1 X96.172 Y94.154 E26.83533
G1 X96.683 Y93.994 E26.87808
G1 X97.213 Y93.911 E26.9209
G1 X97.5 Y93.9 E26.94383
G1 X122.5 Y93.9 E28.93943
G1 X123.035 Y93.94 E28.98226
G1 X123.558 Y94.059 E29.02507
G1 X124.057 Y94.254 E29.06784
G1 X124.522 Y94.522 E29.11068
G1 X124.942 Y94.855 E29.15347
G1 X125.299 Y95.237 E29.1952
G1 X125.441 Y95.058 E29.21344
G1 X125.833 Y94.692 E29.25625
G1 X126.275 Y94.389 E29.29903
G1 X126.758 Y94.154 E29.34191
G1 X127.269 Y93.994 E29.38465
G1 X127.799 Y93.911 E29.42747
G1 X128.086 Y93.9 E29.4504
G1 X153.086 Y93.9 E31.44601
G1 X153.621 Y93.94 E31.48883
G1 X154.144 Y94.059 E31.53165
G1 X154.643 Y94.254 E31.57441
G1 X155.108 Y94.522 E31.61725
G1 X155.528 Y94.855 E31.66004
G1 X155.894 Y95.247 E31.70285
G1 X156.197 Y95.689 E31.74563
G1 X156.432 Y96.172 E31.7885
G1 X156.592 Y96.683 E31.83124
G1 X156.675 Y97.213 E31.87407
G1 X156.686 Y97.5 E31.89699
G1 X156.686 Y122.5 E33.8926
G1 X156.646 Y123.035 E33.93543
G1 X156.527 Y123.558 E33.97824
G1 X156.332 Y124.057 E34.02101
G1 X156.064 Y124.522 E34.06385
G1 X155.731 Y124.942 E34.10664
G1 X155.339 Y125.308 E34.14945
G1 X154.897 Y125.611 E34.19222
G1 X154.734 Y125.69 E34.20668
G1 X154.91 Y125.879 E34.2273
G1 X155.213 Y126.321 E34.27007
G1 X155.448 Y126.804 E34.31295
G1 X155.608 Y127.315 E34.35569
G1 X155.691 Y127.845 E34.39851
G1 X155.702 Y128.132 E34.42144
G1 X155.702 Y153.132 E36.41705
G1 X155.662 Y153.667 E36.45987
G1 X155.543 Y154.19 E36.50269
G1 X155.348 Y154.689 E36.54546
G1 X155.08 Y155.154 E36.5883
G1 X154.747 Y155.574 E36.63108
G1 X154.355 Y155.94 E36.67389
G1 X153.913 Y156.243 E36.71667
G1 X153.43 Y156.478 E36.75955
G1 X152.919 Y156.638 E36.80229
G1 X152.389 Y156.721 E36.84511
G1 X152.102 Y156.732 E36.86804
G1 X127.102 Y156.732 E38.86365
G1 X126.567 Y156.692 E38.90647
G1 X126.044 Y156.573 E38.94929
G1 X125.545 Y156.378 E38.99205
G1 X125.08 Y156.11 E39.03489
G1 X124.66 Y155.777 E39.07768
G1 X124.294 Y155.385 E39.12049
G1 X123.991 Y154.943 E39.16327
G1 X123.756 Y154.46 E39.20614
G1 X123.596 Y153.949 E39.24888
G1 X123.513 Y153.419 E39.29171
G1 X123.502 Y153.132 E39.31463
G1 X123.502 Y128.132 E41.31024
G1 X123.542 Y127.597 E41.35307
G1 X123.661 Y127.074 E41.39588
G1 X123.856 Y126.575 E41.43865
G1 X124.124 Y126.11 E41.48149
G1 X124.457 Y125.69 E41.52428
G1 X124.849 Y125.324 E41.56709
G1 X125.291 Y125.021 E41.60986
G1 X125.454 Y124.942 E41.62432
G1 X125.287 Y124.763 E41.64386
G1 X125.145 Y124.942 E41.6621
G1 X124.753 Y125.308 E41.70491
G1 X124.311 Y125.611 E41.74769
G1 X123.828 Y125.846 E41.79056
G1 X123.317 Y126.006 E41.83331
G1 X122.787 Y126.089 E41.87613
G1 X122.5 Y126.1 E41.89906
G1 X97.5 Y126.1 E43.89466
G1 X96.965 Y126.06 E43.93749
G1 X96.442 Y125.941 E43.9803
G1 X95.943 Y125.746 E44.02307
G1 X95.641 Y125.572 E44.05089
G1 X95.584 Y125.611 E44.05641
G1 X95.101 Y125.846 E44.09928
G1 X94.59 Y126.006 E44.14202
G1 X94.06 Y126.089 E44.18485
G1 X93.773 Y126.1 E44.20777
G1 X68.773 Y126.1 E46.20338
G1 X68.238 Y126.06 E46.24621
G1 X67.715 Y125.941 E46.28902
G1 X67.216 Y125.746 E46.33179
G1 X66.751 Y125.478 E46.37463
G1 X66.331 Y125.145 E46.41742
G1 X65.965 Y124.753 E46.46022
G1 X65.662 Y124.311 E46.503
G1 X65.427 Y123.828 E46.54588
G1 X65.267 Y123.317 E46.58862
G1 X65.184 Y122.787 E46.63144
G1 X65.173 Y122.5 E46.65437
G1 X65.173 Y97.5 E48.64998
G1 X65.213 Y96.965 E48.6928
G1 X65.332 Y96.442 E48.73562
G1 X65.527 Y95.943 E48.77838
G1 X65.795 Y95.478 E48.82123
G1 X66.128 Y95.058 E48.86401
G1 X66.52 Y94.692 E48.90682
G0 F6000 X67.294 Y95.122
G1 F1200 X67.716 Y94.907 E48.94463
G1 X68.167 Y94.766 E48.98235
G1 X68.773 Y94.7 E49.03101
G1 X93.773 Y94.7 E51.02661
G1 X94.244 Y94.74 E51.06435
G1 X94.702 Y94.859 E51.10212
G1 X95.133 Y95.053 E51.13985
G1 X95.526 Y95.316 E51.1776
G1 X95.642 Y95.405 E51.18927
G1 X96.021 Y95.122 E51.22702
G1 X96.443 Y94.907 E51.26483
G1 X96.894 Y94.766 E51.30255
G1 X97.5 Y94.7 E51.35121
G1 X122.5 Y94.7 E53.34682
G1 X122.971 Y94.74 E53.38455
G1 X123.429 Y94.859 E53.42232
G1 X123.86 Y95.053 E53.46005
G1 X124.253 Y95.316 E53.4978
G1 X124.595 Y95.642 E53.53552
G1 X124.878 Y96.021 E53.57327
G1 X125.093 Y96.443 E53.61108
G1 X125.234 Y96.894 E53.6488
G1 X125.292 Y97.428 E53.69167
G1 X125.326 Y97.029 E53.72364
G1 X125.445 Y96.571 E53.76141
G1 X125.639 Y96.14 E53.79914
G1 X125.902 Y95.747 E53.83689
G1 X126.228 Y95.405 E53.8746
G1 X126.607 Y95.122 E53.91236
G1 X127.029 Y94.907 E53.95017
G1 X127.48 Y94.766 E53.98789
G1 X128.086 Y94.7 E54.03655
G1 X153.086 Y94.7 E56.03215
G1 X153.557 Y94.74 E56.06989
G1 X154.015 Y94.859 E56.10766
G1 X154.446 Y95.053 E56.14539
G1 X154.839 Y95.316 E56.18314
G1 X155.181 Y95.642 E56.22085
G1 X155.464 Y96.021 E56.25861
G1 X155.679 Y96.443 E56.29642
G1 X155.82 Y96.894 E56.33413
G1 X155.886 Y97.5 E56.38279
G1 X155.886 Y122.5 E58.3784
G1 X155.846 Y122.971 E58.41613
G1 X155.727 Y123.429 E58.45391
G1 X155.533 Y123.86 E58.49164
G1 X155.27 Y124.253 E58.52938
G1 X154.944 Y124.595 E58.5671
G1 X154.565 Y124.878 E58.60486
G1 X154.143 Y125.093 E58.64266
G1 X153.692 Y125.234 E58.68038
G1 X153.086 Y125.3 E58.72904
G1 X128.086 Y125.3 E60.72465
G1 X127.615 Y125.26 E60.76238
G1 X127.157 Y125.141 E60.80016
G1 X126.726 Y124.947 E60.83788
G1 X126.333 Y124.684 E60.87563
G1 X125.991 Y124.358 E60.91335
G1 X125.708 Y123.979 E60.95111
G1 X125.493 Y123.557 E60.98891
G1 X125.352 Y123.106 E61.02663
G1 X125.294 Y122.572 E61.06951
G1 X125.26 Y122.971 E61.10147
G1 X125.141 Y123.429 E61.13925
G1 X124.947 Y123.86 E61.17697
G1 X124.684 Y124.253 E61.21472
G1 X124.358 Y124.595 E61.25244
G1 X123.979 Y124.878 E61.29019
G1 X123.557 Y125.093 E61.328
G1 X123.106 Y125.234 E61.36572
G1 X122.5 Y125.3 E61.41438
G1 X97.5 Y125.3 E63.40999
G1 X97.029 Y125.26 E63.44772
G1 X96.571 Y125.141 E63.48549
G1 X96.14 Y124.947 E63.52322
G1 X95.747 Y124.684 E63.56097
G1 X95.631 Y124.595 E63.57264
G1 X95.252 Y124.878 E63.6104
G1 X94.83 Y125.093 E63.6482
G1 X94.379 Y125.234 E63.68592
G1 X93.773 Y125.3 E63.73458
G1 X68.773 Y125.3 E65.73019
G1 X68.302 Y125.26 E65.76792
G1 X67.844 Y125.141 E65.8057
G1 X67.413 Y124.947 E65.84343
G1 X67.02 Y124.684 E65.88117
G1 X66.678 Y124.358 E65.91889
G1 X66.395 Y123.979 E65.95665
G1 X66.18 Y123.557 E65.99445
G1 X66.039 Y123.106 E66.03217
G1 X65.973 Y122.5 E66.08083
G1 X65.973 Y97.5 E68.07644
G1 X66.013 Y97.029 E68.11417
G1 X66.132 Y96.571 E68.15194
G1 X66.326 Y96.14 E68.18967
G1 X66.589 Y95.747 E68.22742
G1 X66.915 Y95.405 E68.26514
G1 X67.294 Y95.122 E68.30289
G0 F6000 X67.693 Y95.817
G1 F1200 X68.049 Y95.636 E68.33477
G1 X68.434 Y95.529 E68.36667
G1 X68.773 Y95.5 E68.39383
G1 X93.773 Y95.5 E70.38944
G1 X94.171 Y95.54 E70.42137
G1 X94.552 Y95.658 E70.45321
G1 X94.903 Y95.85 E70.48514
G1 X95.208 Y96.107 E70.51698
G1 X95.456 Y96.42 E70.54886
G1 X95.639 Y96.783 E70.58131
G1 X95.658 Y96.721 E70.58648
G1 X95.85 Y96.37 E70.61842
G1 X96.107 Y96.065 E70.65026
G1 X96.42 Y95.817 E70.68213
G1 X96.776 Y95.636 E70.71401
G1 X97.161 Y95.529 E70.74591
G1 X97.5 Y95.5 E70.77307
G1 X122.5 Y95.5 E72.76868
G1 X122.898 Y95.54 E72.80061
G1 X123.279 Y95.658 E72.83245
G1 X123.63 Y95.85 E72.86438
G1 X123.935 Y96.107 E72.89622
G1 X124.183 Y96.42 E72.9281
G1 X124.364 Y96.776 E72.95998
G1 X124.471 Y97.161 E72.99187
G1 X124.5 Y97.5 E73.01903
G1 X124.5 Y122.5 E75.01464
G1 X124.46 Y122.898 E75.04657
G1 X124.342 Y123.279 E75.07841
G1 X124.15 Y123.63 E75.11035
G1 X123.893 Y123.935 E75.14218
G1 X123.58 Y124.183 E75.17406
G1 X123.224 Y124.364 E75.20594
G1 X122.839 Y124.471 E75.23784
G1 X122.5 Y124.5 E75.265
G1 X97.5 Y124.5 E77.2606
G1 X97.102 Y124.46 E77.29253
G1 X96.721 Y124.342 E77.32437
G1 X96.37 Y124.15 E77.35631
G1 X96.065 Y123.893 E77.38815
G1 X95.817 Y123.58 E77.42002
G1 X95.634 Y123.217 E77.45247
G1 X95.615 Y123.279 E77.45765
G1 X95.423 Y123.63 E77.48959
G1 X95.166 Y123.935 E77.52142
G1 X94.853 Y124.183 E77.5533
G1 X94.497 Y124.364 E77.58518
G1 X94.112 Y124.471 E77.61708
G1 X93.773 Y124.5 E77.64424
G1 X68.773 Y124.5 E79.63984
G1 X68.375 Y124.46 E79.67177
G1 X67.994 Y124.342 E79.70361
G1 X67.643 Y124.15 E79.73555
G1 X67.338 Y123.893 E79.76739
G1 X67.09 Y123.58 E79.79926
G1 X66.909 Y123.224 E79.83114
G1 X66.802 Y122.839 E79.86304
G1 X66.773 Y122.5 E79.8902
G1 X66.773 Y97.5 E81.88581
G1 X66.813 Y97.102 E81.91774
G1 X66.931 Y96.721 E81.94957
G1 X67.123 Y96.37 E81.98151
G1 X67.38 Y96.065 E82.01335
G1 X67.693 Y95.817 E82.04523
G0 F6000 X68.159 Y96.469
G1 F1200 X68.443 Y96.346 E82.06993
G1 X68.773 Y96.3 E82.09653
G1 X93.773 Y96.3 E84.09214
G1 X94.08 Y96.34 E84.11685
G1 X94.366 Y96.457 E84.14151
G1 X94.613 Y96.643 E84.1662
G1 X94.804 Y96.886 E84.19087
G1 X94.927 Y97.17 E84.21557
G1 X94.973 Y97.5 E84.24217
G1 X94.973 Y122.5 E86.23778
G1 X94.933 Y122.807 E86.26249
G1 X94.816 Y123.093 E86.28716
G1 X94.63 Y123.34 E86.31184
G1 X94.387 Y123.531 E86.33651
G1 X94.103 Y123.654 E86.36122
G1 X93.773 Y123.7 E86.38781
G1 X68.773 Y123.7 E88.38342
G1 X68.466 Y123.66 E88.40813
G1 X68.18 Y123.543 E88.4328
G1 X67.933 Y123.357 E88.45748
G1 X67.742 Y123.114 E88.48215
G1 X67.619 Y122.83 E88.50686
G1 X67.573 Y122.5 E88.53346
G1 X67.573 Y97.5 E90.52906
G1 X67.613 Y97.193 E90.55378
G1 X67.73 Y96.907 E90.57844
G1 X67.916 Y96.66 E90.60313
G1 X68.159 Y96.469 E90.6278
G0 F6000 X68.523 Y97.188
G1 F1200 X68.773 Y97.1 E90.64895
G1 X93.773 Y97.1 E92.64456
G1 X93.946 Y97.14 E92.65874
G1 X94.085 Y97.25 E92.67289
G1 X94.173 Y97.5 E92.69404
G1 X94.173 Y122.5 E94.68965
G1 X94.134 Y122.673 E94.70381
G1 X94.023 Y122.812 E94.71801
G1 X93.773 Y122.9 E94.73916
G1 X68.773 Y122.9 E96.73477
G1 X68.6 Y122.861 E96.74893
G1 X68.461 Y122.75 E96.76312
G1 X68.373 Y122.5 E96.78428
G1 X68.373 Y97.5 E98.77989
G1 X68.413 Y97.327 E98.79406
G1 X68.523 Y97.188 E98.80821
G1 F1800 E88.80821
G0 F6000 X68.523 Y96.835
G0 X94.426 Y96.847
G0 X96.3 Y97.5
G1 F1800 E98.80821
G1 F1200 X96.34 Y97.193 E98.83293
G1 X96.457 Y96.907 E98.85759
G1 X96.643 Y96.66 E98.88227
G1 X96.886 Y96.469 E98.90695
G1 X97.17 Y96.346 E98.93165
G1 X97.5 Y96.3 E98.95825
G1 X122.5 Y96.3 E100.95386
G1 X122.807 Y96.34 E100.97857
G1 X123.093 Y96.457 E101.00324
G1 X123.34 Y96.643 E101.02792
G1 X123.531 Y96.886 E101.05259
G1 X123.654 Y97.17 E101.07729
G1 X123.7 Y97.5 E101.10389
G1 X123.7 Y122.5 E103.0995
G1 X123.66 Y122.807 E103.12421
G1 X123.543 Y123.093 E103.14888
G1 X123.357 Y123.34 E103.17356
G1 X123.114 Y123.531 E103.19823
G1 X122.83 Y123.654 E103.22294
G1 X122.5 Y123.7 E103.24953
G1 X97.5 Y123.7 E105.24514
G1 X97.193 Y123.66 E105.26986
G1 X96.907 Y123.543 E105.29452
G1 X96.66 Y123.357 E105.3192
G1 X96.469 Y123.114 E105.34388
G1 X96.346 Y122.83 E105.36858
G1 X96.3 Y122.5 E105.39518
G1 X96.3 Y97.5 E107.39078
G0 F6000 X97.1 Y97.5
G1 F1200 X97.14 Y97.327 E107.40496
G1 X97.25 Y97.188 E107.41911
G1 X97.5 Y97.1 E107.44026
G1 X122.5 Y97.1 E109.43587
G1 X122.673 Y97.14 E109.45005
G1 X122.812 Y97.25 E109.4642
G1 X122.9 Y97.5 E109.48535
G1 X122.9 Y122.5 E111.48096
G1 X122.861 Y122.673 E111.49512
G1 X122.75 Y122.812 E111.50932
G1 X122.5 Y122.9 E111.53047
